/* XPM */
static char *east[] = {
/* columns rows colors chars-per-pixel */
"128 128 187 2 ",
"   c #070501",
".  c #0C0701",
"X  c #0E0901",
"o  c #120D02",
"O  c #130E09",
"+  c #161002",
"@  c #1A1303",
"#  c #1F1807",
"$  c #161109",
"%  c #1A150B",
"&  c #1E180B",
"*  c #1A1611",
"=  c #1E1911",
"-  c #221702",
";  c #211905",
":  c #221B0C",
">  c #221D13",
",  c #27200E",
"<  c #2C230C",
"1  c #30270D",
"2  c #262114",
"3  c #2A2414",
"4  c #2F2815",
"5  c #262119",
"6  c #2A251B",
"7  c #2E2819",
"8  c #302710",
"9  c #322A15",
"0  c #382E14",
"q  c #322B1B",
"w  c #37301E",
"e  c #38311E",
"r  c #2E2920",
"t  c #342E20",
"y  c #373021",
"u  c #5C3D01",
"i  c #6B3D00",
"p  c #644403",
"a  c #6A4402",
"s  c #6D4A03",
"d  c #644409",
"f  c #6C4008",
"g  c #6C4B0C",
"h  c #724403",
"j  c #7B4600",
"k  c #734E04",
"l  c #7B4C02",
"z  c #734E09",
"x  c #7A4F0A",
"c  c #6F5102",
"v  c #755203",
"b  c #7B5503",
"n  c #7D5A03",
"m  c #75520B",
"M  c #7B550B",
"N  c #7D5A0B",
"B  c #755212",
"V  c #7B5511",
"C  c #7D5A12",
"Z  c #814E01",
"A  c #834F09",
"S  c #835503",
"D  c #895601",
"F  c #835C03",
"G  c #8A5D03",
"H  c #83540B",
"J  c #8A550C",
"K  c #835D0A",
"L  c #8B5D0B",
"P  c #915E02",
"I  c #915E0B",
"U  c #865410",
"Y  c #8C5711",
"T  c #835D12",
"R  c #8B5C13",
"E  c #8E5C1B",
"W  c #915D11",
"Q  c #866103",
"!  c #8C6303",
"~  c #8E6804",
"^  c #85620B",
"/  c #8C640B",
"(  c #8E690B",
")  c #926503",
"_  c #996603",
"`  c #956A03",
"'  c #9A6D03",
"]  c #93650B",
"[  c #99660B",
"{  c #946B0B",
"}  c #9A6D0A",
"|  c #977006",
" . c #9D7203",
".. c #96710C",
"X. c #9D720B",
"o. c #9F780F",
"O. c #846212",
"+. c #8C6413",
"@. c #8D6A13",
"#. c #85631A",
"$. c #8A651B",
"%. c #8E6A1A",
"&. c #936512",
"*. c #986413",
"=. c #946B13",
"-. c #9A6C13",
";. c #936419",
":. c #9A6618",
">. c #946C1B",
",. c #9B6D1A",
"<. c #957113",
"1. c #9C7313",
"2. c #9E7814",
"3. c #95721B",
"4. c #9C731A",
"5. c #9D791B",
"6. c #A06E04",
"7. c #A16F0C",
"8. c #A17503",
"9. c #A47904",
"0. c #A87D06",
"q. c #A1750B",
"w. c #A8760F",
"e. c #A57A0B",
"r. c #A97D0C",
"t. c #A16E12",
"y. c #A06E1E",
"u. c #A27512",
"i. c #A87612",
"p. c #A57A13",
"a. c #AA7D13",
"s. c #A3751B",
"d. c #A9761B",
"f. c #A47B1B",
"g. c #AA7D1A",
"h. c #B27F14",
"j. c #B17F1C",
"k. c #846420",
"l. c #896523",
"z. c #8D6A23",
"x. c #9B6720",
"c. c #936D21",
"v. c #986F24",
"b. c #947221",
"n. c #9B7422",
"m. c #9E7A22",
"M. c #9C7628",
"N. c #A06C22",
"B. c #A37522",
"V. c #AA7622",
"C. c #A47B23",
"Z. c #AB7D22",
"A. c #A57C29",
"S. c #B07D26",
"D. c #AD810D",
"F. c #B0840E",
"G. c #B3880E",
"H. c #AD8213",
"J. c #A7811C",
"K. c #AD821B",
"L. c #B18514",
"P. c #B58915",
"I. c #B98D16",
"U. c #B1851B",
"Y. c #B8861C",
"T. c #B58A1B",
"R. c #B98D1C",
"E. c #BC9117",
"W. c #BD911D",
"Q. c #A68123",
"!. c #AD8323",
"~. c #AF8924",
"^. c #A68028",
"/. c #AE8328",
"(. c #B28522",
"). c #BA8722",
"_. c #B58A22",
"`. c #B98D22",
"'. c #B08228",
"]. c #B48C29",
"[. c #BD9122",
"{. c #BE9228",
"}. c #C0951E",
"|. c #C19523",
" X c #C49924",
".X c #C99D26",
"XX c #C29629",
/* pixels */
"G 1.-.U.(.Z.S.U.u.t.d.h.t.d.d.d.Y.U.Y.L.q.h.a.h.w.J X.q.] L _ _ ' G P 6.P P ' ' ' P _ 6.' ' _ P ) P ) P G Z P Z S Z Z l S F a 2 F ! ) P j [ A J J J I J J } A I } S.Y.Y.i.q.r.d.U.d.t.7.} _ ' G D D P ) P P _ D _ ' ' P P _ 8._ ) J P P _ ] } I q.[ p.s.{ ! R > ",
"l ] o.o.a.u.a.a.s.2.g.g.g.T.T.K.g.a.-.r.r.H.r.r.q.]  .` { G ) ' G ` ) ) G ' !  .' P '  . . .' 8.' 8.) ) S G ' D S S S S F l 1 $ S ' ~ ! K / } &.1.d.1.;.-.-.a.u.1.H.a.r.H.a.H.J.L.g.u.u.a...X.'  .] ' ` _ ' 8.9.` | 8.8.G ' `  .' G ] } ) / [ 8.q.8. .| ~ { 0 6 ",
"b Q b n n K G ~ / >.C./.^.m.4.3.C.Q.=.1.2.C.5...{ / ~ ! F F k k b k F Q l ! Q ! ! F ! ! ! ~ Q F G F ! F ! Q F k b k k k v c ; $ G F s m M O.<.=.>.c.v.>.( M T =.( / ) ( ` ~ { ( 2.<.Z.4.2.( F ! / ~ ! F F / ~ { / F Q ! S b F Q F v F ! ! Q Q ! F Q F n b v q 5 ",
"D F b Q Q G ~ / { J.J.5.Z.!.Z.f.4.Q.f.p.2.c.1.X.{ X.| / b ! b S ~ ` ` ` ` ` ` ~ ` ~ ! ` ! ~ ` ~ ` ! ~ F ! ! S ! S b k k a a & @ G G M N H ( 1.2.f.>.,.Q.,.=.=.;.@.X.{ ` ) { X...r.s.C.3.u./ / / ) ( ~ / G / | | Q ! ` ` ! F ` ` ` ! ` ` ` Q ` ` ! ` Q Q n b 4 3 ",
"S ! Q ! ` / 8.o.-.Z.!.`./.J.u.s.1.f.[._.U.J.1.u.{ X.L K ) ) ) ! `  .` ` | ` `  .! | | ' ` | | )  .) G ! ` ` | G b S b v s p & % G F m K T / ..D.p.s.U.Q.4.g.`.>.p.o.e.| X.| e.e.r.p.T.R.H.o.] { ` X.{ ) ` ) | ` ! ! ' ) ` ) ' ` ` `  .| ' ` ` | ! ` ~ Q n n 9 6 ",
"D ` n ` |  .e.D.L.T.!.[._.T.p.U.H.a.[.{.`.[.f.e.q.e.D.) ] `  .8.' ` ! '  .' ' ' ' ! ' `  .8.|  .S ! ` F ! S F G D G l b k s : & D S / @.>.s.r.H.K.`.].U.=.s.`.a.a.q.8.X.' X.D.H.T.I.{. XK.H.r.X.X.e.e.} { { | ) ! ! 8.8. . .` ` ' | |  . .` ) ) | ` n ~ Q b q 7 ",
"S ' ! F  .X.8.D.L.H.K.U.].I.I.R.T.u.L.U.f. XL.e.e.X.0.0.9.8.8.8.8.8. . .8.' ` )  .G  .` 8.! ' D ) S F D G ! S ) ) F F b F F : = ) ` { p._.s.r.H.K.T.U.L.K.K.[.I.P.e.e. .r.r.D._.{.`.R.R.R.W.e.X.X.` } } ' ] 8.8. .9. .9.9.8. .'  . .` ' | ) ` '  . .~ ~ ~ n 7 2 ",
"G ! n / | 8.e.D.H.P.T.U.!.i.T.H.D.D.D.L.R.|.T.p.q.r.D.r.r.8. .' ' 8.9.'  .`  .9.8.8.9.' 8.' G ' D G S D ) D S G S S F F Q n , & P S / X.Z.!.a.s._.Z.I.}.W.|.f._.K.} X.r.r.e.g.K.T.`.`.^.W.K.p.1.X.e.e.q.X.8.9.0.9.9. . .9. . . .8.) S G 8.9.9. .8. .| ~ n n , > ",
"D ) F | 8.o.r.F.e.P._.`.(.U.I.L.r.q.a.P. XT.P.L.r.D.D.0.0.9.} ' 8.8.' 8.8.8.8.8.9.8.' ' 8.8.' 8. .` ) ) G ' ) G ) G ] ~ Q n , = ) ) / 1.g.!.`.U.`.`.|.`.|.W.L.`.P.r.q.q.D.H.K.d.s.`.g.Y.P.U.U.p.p.r.r.r.} X. .9.8.9.' 8.8. .' ' 9.8.G ) 8.' 8.8. .` ` ! ! v , > ",
"_ ` ! |  .e.e.D.p.s.P.T.W.I.|.L.L.P.H.H.W.Y.q.F.D.D.r.0.9.X.e.9. .q.8.) 8.8.8.' 9.) ` 8.8.9.' ' `  .' ` G ' ) _ / S ` { / ^ 4 2 ) ` / =.1.g.{.{.`. X|.`.W.`. X}.}.P.Y.L.H.r.L.L.T.Z.U.R.P.L.a.u.r.H.X.a.u.r.q.9.9.e.9.8.8.9. .8. .' G 8.8.8. .' | ! ! ` ! n 3 2 ",
"` | F ! | q.9.q.e.1.} X.U.}.T.I.}.P.K.a.[.H.r.0.r.a.r.r.0.} 9.' 8.` G ' ' 8.9.8.8. .' D 8.' ) F ' ` )  . . .8.G  .' } ) ~ F w 6 )  .G ( q.s.K.s.T.{.K.P.R.`.H.P.[.[.`.I.T.H.P.T.`.Y.a.P.P.H.u.q.} a.e.a.e.} 8.} } ' '  .' 8. .' 8.8.'  . .8.8.` 8.| ` F Q b 4 2 ",
"G / G ) e.0.8.9.0.r.q.q.L.U.a.U.(.`.T.L.|.P.r.r.r.e.8. .9.e.'  .8.L ) 8.0.e.9.8.8.) 8.8.' ' ' G G '  .G ) 8.) G ' / | ~ Q n w 7 ) ) ~ ` K ] ] u.H.I.P.U.H.g.U.U.`. XY.`.T.U.I.T.[.W.P.P.L.D.q.} q.L.} a.i.q.e.8.} } 9.8.' ' 8.8.8.8.)  .8.8.| 8. .8.` ! Q v q 5 ",
"_ ) F /  . . .D.0.r.r.-.r.L.d.g.H.`..X XT.H.r.r.L.r.} } X.r. .8.G L ! 8.' 9.8.8.8.` ) '  .8.' ' G ` ) ' ' ` G G | ' ` ` Q b q 6 P ` ! `  .] L q.q.a.L.T.L.L.q.} P.I.|.L.I.W.|.R.|.U.H.H.P.r.e.e.} -.u.I.i.u.e.q.e.' 8.8._ ) 9.9. .8.' ' 9.8.9.9.9.| | ! Q n q 6 ",
"D ' / (  . .X.q.r.q.r.D.r.q.} a.d.-.g.[.W.Y.L.K.H.u.r.q.0.0.8.' ) } 8.9.8.9.8.' ' D ) ' ' 8.' 8.' ' 9.8.G F ) ' ) F ! ! n Q 4 6 P ) Q ! ` } ] | q.a.u.H.F.F.q.a.u.a.U.`.|. XU.|._.K.(.K.U.P.w.0.q.r.q.a.a.r.}  .8.e.r.9.) ] 8.8.' ) ' 8.' '  .8.| ` ` ~ F n q 3 ",
"' 8.) Q { e.e.e.r.q.a.0.0.e.0.r.} H.K.[. XI.a.L.L.r.] ] 0.9.8.}  .8.} ' 8._  .8.) P '  .' ' 8.8.' 8.9.8.8.' )  .8.F D F Q n < > ) | ! ! ) ` G ] ) e.q.[ q.F.u.q.q.} q.H.|.[.U.|.|.].d.g.a.u.r.e.u.q.q.u.1.e._ _ _ X.0.9.0.0.9.9. .9.8.8.' G )  .8.` ` ~ F v 3 2 ",
"6. .! ` 8.X.8.D.F.r.P.D.e.0.0.r.q.D.g.[.`.I.G.a.a.a.0.} e.9.0.8. .8._ 8.q. .8.8. .8.F ' G 8. .` 8.8.8.' ' ) ' ' '  .` ~ Q n 4 5 )  .Q | ' q.) ) 8.} 0.D.0.r.q.t.u.p.p.U.`.|.Y.|.|.|.K._.I.a.D.r.a.u.r.q.X.e.} ` ' } 9.0.0. .8.' ' 8.8.8. .` D G '  .` ! Q b , > ",
"' ' Q G { } e.e.H.D.r.u.} q.0.F.L.P.`.}.}.U.-.0.U.L.r.9.q.r.0.e.8.} 9.8.8.! ' 8.' 8.G ) ' ' 8.8.' 8.8.8. .G )  .9.9.! ! n b w 6 _  .~ ` ` ` ` ' _ ] q.r.e.D.q.q.P.g.(.(.`.`.I.|.|.|.Y.[.T.K.I.L.P.g.a.q.e.} ' _ } 9.8.9.8.8.} 8.0.8.8. .8.` ) ' ) ) ` ! F b 3 5 ",
"8.` / !  .X.F.G.} F.u.q.q.r.X.r.F.-.U.W.T.`.p.a.R.I.H.X.e.q.e.9.9.e.8.} ] _ G ' ) ' ' 8.) 8.8.8.8.' 8.8.' ' 8.9.|  .` ~ ~ v e 6 S ' ! ! ` ` G G G 8.r.F.F.F.H.f._..X`.a.d.`.I.T.}. X`.{.`.[.|.`.U.g.H.a.} u.} e.0.q.e.r.e.0.] } 9.9.8.8.8.8.8.' ' ) ` ` Q v 4 5 ",
"]  ./ ~ { r.P.u.q.L.r.7.q.q.} r.H.-.q.T.T.Z.H.p.W.|.i.] { *.L ] e. .9.e.8.G D S D ` ) ` 8.8.8.' ' G ) 8.8.8.8.9. . .| ! n v e 6 P  .! ! ' ' ` G ! e.0.e.e.L.U.Y._.]. XU.s.`.T.L.(.].|.XX(.T.u.p.F.q.q.e.q.q.q.} 8.q.0.0.0.r.8.8.8.8.8.9. .' 8.' ` ` ` ` b v 4 5 ",
"q.' Q | q.L.L.a.r.F.a.0.q.-.r.q.a.(.a.Y.(.Z.I.H.U.|.f.u.L.L.-.] ] [ q.0.9.' ` ) ) D  .8.8. .8.8.8.' ' 8. .8.8.8.8. . .~ n b 7 2 ) 8.! ` ` ' ! G _ q.e.0.r.P.U._.`.Y.a.P.I.U. XY.U.(.P.W.}.T.q.q.r.r.r.e.r.} } q.0.0.0.0.r.q.} q.8.} 8.8.8. .8.8.`  .) F Q b w 3 ",
"6.q.! ] } L.D.D.D.u.G.r.r.X.P.p.-.R.P.|.U.Z.K.I.[.`.K.L.I.[.a.X.] ] } ] 8.9.9.| 8.` ' 8.' G ' '  .) ' ' 8.' 8.8.8.8.` ` n v 4 2 )  .~ ! ` ! ) ' ' e.e.} X.D.q.K.H.`.g.p.P.|.T.W.I.`.(.|.L.a.X.q.q.0.6.0.0.r.r.r.q.r.D.0.X.e.8.0.q.' 9.8.' ) ) 8. .| ` F n b 4 6 ",
"] ' ! / -.X.e.e.F.r.a.P.H.H.I.p.U.|.W.U.-.`.`.{.W. XW.I.`.d.q.e.r.' 9.8.8.' 9.| 9.' 8.' G ) ' ) ) ' ' ' 8.8.9.8.| ' ` ! ~ n w 2 P ! F ` |  .8.8.8.e.0.0.X.e.D.a.H.[.Y.e.r.P.W.W.L.|.`.g.L.e.r.} 0.} _ e.0.e.} 1.} e.0.q.X.} X.0.0.} 9. .8. . .' ' ` ` F Q b w 6 ",
"] ~ ! / u.a.{ X.q.u.P.i.P.H.K.P.P. XR.T.s.|.XXY.R. XW.Y. X`.e.q.0.e.8.8.8.8.9.9.` ) G  .) ' ' ) G 8.8.9.8.8.| 9. .| ! ! ~ n 4 > P ! F ! '  . .| 9. .' } ' X.q.F.H.|.W.u.e.P.[.H.L.T.{.g.i.1.} } 9.9.` ] 0.} } q.q.0.0.0. .q.9.e.8.e.' 8.8.'  .'  .8.! Q Q n w 3 ",
"}  .~ G } 1.} r.e.r.T.U.[. X`.R.}.W.U.L.g.a.P.a.p.].[.R.Y.!.a.q.q.0.e.e.9.8.9.| G ' ' ` ' `  .' 8.' ) 8. .' 9.` ' ` ` ! n n 4 2 ' ) F ! | ` ' G  .X.} ' q.q.r.F.H.K.a.H.p.U.|.T.g.U.(.g.u.q.} } ' ]  .0.q.} } } 0.} e.e.X.X.r.p.} 8.8.6. .9.) 8.` ' | ~ n n q 2 ",
"I 8.n ( ..} q.X.D.H.R.K.K.p.K.I.U.P.P.P.K.H.P.<.L.!.`.Q.U.I.(.p.p.H.o.q.e.e.D. .' ' ` ` ) ! |  .8.' 9.| 9. . .8. .~ Q n Q b 0 5 P ) b F ` | | 9. .' 8.e.{ | q.r.P.R.U.J.T.W.].L.J.H._.J.u...` { { ' ' } ' q.u.1.} } e.8.e.e.D.r.8... .|  .9. . . . .! Q ! n 9 > ",
"} X./ { e...X.{ F.T.[.~.2.p.e.} D.H.I.K.D.D.u.P.-.&.f.K.U.(._.d.p.T.X.r.D.p. .o.8.|  . .) ` | `  .'  . .|  .|  . .` ` Q Q b 4 5 P ! F F ` |  .` ` | ) ] ) ..X.-.H.U.`.P.J.L.W.R.F.U.~.H.X.{ ` `  .' `  .{ ` q.X.s...} { X.} e.D.e.X. . .| ` |  .' ! ` ) v v 3 > ",
"} | / / ] | { ..D.J.H.f.J.p.2.....J.~.H.p.p.p.U.s.@.J.T.{.U.5.u.e.1...o.X. .)  .| X.` ` ) | ~ ` G ! |  .X.`  .|  .~ / n b c 4 5 S ` b G ` ! ` | |  .| | X.o.o...o.H.`.!.T.U._.~.2.J.K.K.{ ~ | | ` ~ / ` / ) ) X.{ o.| | X.X.8.{ | e.o. . .` ` Q ! b F k k k 4 2 ",
"} ) ^ F / / / o.2.2.J.J.f.1.o.u.@.p.J.=.=.o.1.f.s.4.(.].U.J.1.( ( ......` ^ / ` | ) ! ` ! ! ~ ! ! ` ` ~ ` ` | ` ~ ~ ~ Q a n 4 5 ! ` Q Q F n ! ~ ~ ` ) ` | | | ....<.K._.J.J.U.U.K.~.K.J.<.~ ~ ~ ~ G ! ! Q / ~ ` | o.......{ ..o.| ( ` ` ! ~ Q ~ b n F b s p 3 > ",
"/ ( n n / n ( ..2.2.J.J.m.5.f.Q.5.5.5.( <.<.<.3.^.Q.b.5.m.5.@.( ~ ^ ( / n N / ~ Q ~ Q ^ b v Q n Q n ~ Q Q Q / Q Q ~ n v v c 9 6 S Q s v a b Q Q Q Q ~ Q ../ ......=.J.b.Q.~.3.2.2.5.5.<.( / ~ ~ n n n n F / ~ / ~ ( ..( ( N Q ..( / / / ~ ~ Q n b n c s v c 4 2 ",
"/ ( n n v N @.@.3.@.<.3.Q.Q.3.%.%.3.3.@.3.3.k.M.b.Q.3.5.m.O.^ N ^ N n n Q n b v n n b a a c v b n n n v b n n n b b v c v a 7 5 l F p k b s v b n n n Q n n n ^ @.n.3.%.<.n.J.@.@.@.<.@.N N n n n n n n ^ / ^ Q n @.^ @.^ C N N ^ ^ Q Q n n n b n n v b s c 7 6 ",
"/ < : , 2 , & & % % # @ + $ $ + @ $ @ & & , 2 2 2 6 & % @ # + + + + + + + + X + + + + X o + @ @ @ @ @ $ + + $ + + + + + + + 3 5 a @ + + + $ @ $ # & 2 5 7 7 2 q 7 4 5 4 3 2 5 2 , & , & , > 2 3 3 3 , > , 2 4 , 4 6 4 5 2 & : & # % # % # % # & # & & : & & & 6 ",
"& % $ * & * & & + $ $ + X o o X o + + $ * $ $ & = = * % $ O + X o X o X X   X X X X X X X X X X o X + X X X X X X X X X X X o % o X o X + + + + + $ $ = > > = 2 5 2 2 > = > > & * $ $ % % & > = > > = % * > 5 > 6 5 2 5 = & % * $ + $ $ $ $ % % % % $ $ $ $ $ $ ",
"` ' ' ' ' G [ } J [ J ] 7.[ _ L q.q.:.x.B.t.t.W I I A A x l l + *.G ! ) 8.' 6._ D _ P G ' _ P P ) ' P ) P Z G S _ ) _ ) G S S ) _ S G 8.9._ 6.' _ ) P ] } ' 7.} } [ [ u.g.S.s.T.V.Z.;.a.-.U F $ O.M L J U J ) ' ) ) 7._ 6._ _ ' ' 6.' _ ) ) _ P D D ' ) ) P ) S ",
" . .8.9.e.r.] ] L *.d.p.L.H.P.L.a.f.-.,.s.d.=.;.=.f.&.+.T V - X 4.-.) ] ` { 8.8.8.) F ` 8.8.' )  . ._  .) ) G ! ) ' 8.' ` G S '  .D ) 8.0.9.e.o.u.p.u.-.u.H.u.K.g.g.g.f.K.f.U.I.U.T.J.J.p.( ; % V ,.K / } / ) I q.8.8.[ X.0.8. .'  ._ '  .| ' ) ) ' `  .` ' ` ' ",
"F ! F G F ( / { $.>.O.@.$.3.1.2.<./ =.+.4.5.%.n.b.z.$.V z g + X -.<.n N b F ! ! ~ ~ ~ ~ ! Q G F Q n ! ! ! ~ F b b Q F F n Q F ! F b k ! / F / ~ ! ~ Q / / -.{ 2.s.!.m.m.s.p.5.~.C.~.<.@.O.O.# $ L +.m N / K m / K ^ { { 2.2.{ { ` / / ^ { ..{ ! F ) ~ ! ! ! ! F ",
"` ! F ` G ] ..o.f.K.p.=.1.B.3.a.1.-.@.;.;.A.>.;.B.M.n.$.x b @ . 4.2.b / F F Q ~ ` ` ` ` | | ` ` ~ Q ` ~ ) ` ` ` F ! ! G ` ! ! ! ) ` ` ~ ` ' ) ) ) / ` / o.f.-.1.U././.^.1.p.K.`.Q.~.J.<.3.3.& % &.p.F Q / { / ] { K { 1.-.e.......) q./ ( o.X.| ` { ~ ` Q ! F ` ",
"~ ) ! ) ! ' X.e.T.L.s.=.s.B.B.B.,.B.`.(._.s.=.=.n.v.,.T z z @ X (.U.Q ~ ! ! ~ ` | ` ' `  .` |  .` ' '  .| ` ` ' ' ' ' ) ` ) ! S ` |  .` `  .8.' { X.e.r.a.p.2.1.J.J./.T.T.U.~.T.U.T.f.5.Q.3.& % -.2./ ..` { { { | / u.=.2.u.p.e.X.X.o.D.X.( { { { X.)  .| ! `  .",
"` ! ) ) { X.} p.!.p.g.=.=.u.4.-.4.f._.C.g.g.,.-.a.,.4.+.m s + X g.p.! ` ) ~ ) ) 8. .8.8.` |  .| ` `  . . . .' ' | ' |  .|  .` ` ` | 8.|  .q.X.{ { } o.r.X.q.q.s.[.p.!.[.|.U.K.L.K.W.J.Q.m.3.: @ X.H./ K { ..} r.p.] ] L } ] u.q.D.D.e.9.o.e.q.} ' ` 8.' 9.| ` 8.",
"` ! ) ` ' q.u.L.K.g.Y.1.&.-.s.d.B./.d.U.d.p.p.=.;.1.+.T x g o o g.g.F / ( | e.'  .` 8.'  .8.8.8.' ) ' `  .' ) ' 8.8. .' ' 8.' ) '  . .9.9.} q.' {  .} } } r.D.L.[.K.W.I.R.W.W. XJ.`.`.J.<.b.# $ } a.{ ( K u.] { r.&.' q.u.u.2.a.D. .e.D.8.e.9.' ` 8.' ) ` ) 9. .",
" .` ) 8.7.X.p.K.(.K.K.r.p.] p.H.U.4.`.{.d.4.4.-.-.-.>.,.N z + X w.a.G / ] ) 9.'  .e.9.q.8.9.' ` ' ' ` ` 8.' '  . .8.8. .8. .8. .` 8.8.9.e.D.0.q.X.e.q.q.} F.D.}. XP.}.K.[.I. XT.p.p.J.1...3.; $ q.L.{ ] L X.-.p.I.q.q.e.{ F.H.H.e.r.9.r.q.o.r.e.e.X.' ) ` `  .` ",
") '  .q.} r.L.}.R.R.I.q.a.a.p.r.a.T.R.T.B.(.R.`.K.;.>.A.T V + X 1.a.~ / { ] ' 8. .9.9.9.0.' ' ) '  .' 8.8.8.8.8.8.8.8.' 8.8.' ' ' 8.9.' 0.q.a.u.r.q.e.L.H.I.U.|.R.H.Y.L.U.P.W.F.H.D.e.2...<.: $ d.H.2.=.=.,.1.`.g.&.&.] ] a.P.H.q.q.0.8.r.u.r.e.} r.' } ' ' 8.' ",
"9.' } u.L.a.P.|.[.[. XU.I.U.W.Y._. X`.Y.|. X`.T.W.C.B.C.c.T + o s.R./ / } ` '  .' 8.9.' 9.0.9.' 8.8.8. .8. .8.8.' 8.8.' ' 8.8.'  .8.0.0.r.r.r.q.H.D.H.a.L.|.`.!.].[.|.r.L.D.r.q.e.X.{ { ^ @.: & Z.a.Z.n.!.{.`.`.B.u.t.u.-.I.P.i.q.e.} 0.r.U.P.a.F.r.} ' ' '  .8.",
"8.q.} q.u.a.U.U.I._.a.P. X(.H.r.p.I.L.Y.].Y.L.D.1.B.B.B.v.N + X i.L.Q G ) ~ )  .' _ ` ` 8.8.8. .8._ ' ' 8.' 8.9.8._ ' 9.' 9.8.8.8.8.9.r.r.q.0.q.D.H.D.P.[.}.e.a.u.g.|.L.D.r.r.e.e.) / { ^ K & % u.r.1.4.4.T.B.B.(.s.=.a.H.P.P.H.} ' } q.u.L.r.D.q.X.} } q.' 9.8.",
"r.0.0.q.D.i.P.P.P.H.a.p.F.P.r.e.D.L.H.W.|.Y.H.P.L.U.Q.M.;.V o X 7.p.~ ) ! ' ` 8.` ` ' 8.9.8.8.8.8. .8.' ' G '  .)  .' ' ` 8. .' ) 0.} e.7.} q.e.F.H.H.L.[.|.p.H.p.`.U.a.r.X.q.9. .} ) / ^ N ; % u.{ 4.p.p.u.L.g.(.)._.R.R.L.i.L.7.e.} ' r.F.9.r.L.H.r.e.0.q.0.} ",
"0.0.e.r.r.L.L.a.L.a.r.r.r.e.e.e.F.r.a.U.U.a.K.r.e.a.p.4.T O.+ X } u.G / ! 8.8.8.' ) 8.8.8.8.8.' ` 8.' ' ) G G S ! ' 8. .8.8.9.9.0.X. .q.r.} } } e.a.F.I.|.R.a.u.P.H.[.P.q.r.q.r.} { ] | / K : & u.r.f.u.p.1.U.P.W.I.|. X.XR.I.a.D.0.q.e.8.L.e.F.a.a.e.e.0.e.9.0.",
"] q.0.r.r.u.-.D.L.g.q.r.D.9.9.9.0.] } r.I.L.F.H.K.K.1.( K M + X ) r.F ` `  . . .' ) 8.' 8.8.8.D ) 8.' G ' ' ) ' ' _  .' ' ' ` 8.8.8.0.e.} ' 8.0.r.f.R.{. XK.u.p.P.g.U.R.r.q.0.0.` { { { ..^ : % a.a.3.2.{ u.H.r.I.a.P.I.{.U.L.L.D.r.q.r.r.e.0.L.G.a.L.q.F.} ] q.",
"8.8.q.q.r.r.] ] r.q.q.r.r.9.8.' ' 8.8.9.D.r.e.a.P.u...X.N m @ X ) X.F ` ' ! 8.8.8.` ' 8.' 8.8.' 8.` G ' ) 8.8.8.8. .! '  .! G ' ' 8.9.} ' ' 8.} X.H.d.).{.U.s.e.p.L.P.`.a.q.q.e.` o.e.../ ( : $ i.i.+.p.p.-.s.r.L.H.`.`.K.I.F.D.r.e.9.} r.9.8.e.e.a.H.H.e.} _ ` ",
"e.9.q.e.0.L.a.P.r.e.8.8.q._  .)  .q.9.} q.p.P.P.P.p.r.{ K n @ X ) 8.~ | ' ` ) 8.8.8.) 8.8. .8.8.8. ._ ' ) '  .8.' ' ) ' ' ' D ' 8.8.9._ } } 8.' 8.H.T.).|.U.a.a.p.d.U.{.U.r.} } { ..D...( ^ ; $ a.a.o.e.1...F.F.D.L. XL.P.P.} } } } _ e.e.} ' 9.q.w.P.s.} q.8.q.",
"0.r.} H.D.F.0.L.0.0.9.' } ' ' _ ] ` ' r.D.L.U.U.!.g.u.{ ( / # X ) } ! ` | | 8.8.'  . .8.8.8. .8.8.8.' ) G 8. .8.' 8.8.) _ 8.' 8. .8.8.8.8.' ' ' 0.F.P.}.W.U.L.g.R.|.(.Y.I.r.} q.} q.e.{ { @.# $ H.p...o.r.e.8.X.-.U.W.a.a.H.r.r.} ' 8.e.} 8.' e.e.q.-.F.e.r.} q.",
"0.u.X.u.L.D.e.F.e.0.} ' [ 0. .} } X.0.X.D.L.I.R._.(.-.o./ n @ + _ q.! ! `  . .) ' ' ' 8.' 8. .' ' ' ' G G ' ) '  .' ' ' '  .8.8.8.8.8.9.9.} } q.q.r.L. X|.(.U.(.`.T.u.u.r.u.a.a.q.} ..{ { K # $ a.u.2.-.a.q.=.q.L.T.g.g.H.e.} r.} 0.9.] } 9.e.q.0.0.q.r.r.r.r.w.",
"q.X.q.u.u.a.D.L.r.8.' } ' q.' { } 8.q.q.0.r.r.r.H.,.{ { Q Q $ X ' e.! ` |  .`  .` 8.' ) 8.8.8.' ' ' 8.G G  .' ) ' G ` 8.8.8. .' ) ' ' ' 8.' 8.} } F.F.a.a.R.I.[.P.L.g.u.a.L.a.P.H.X.e.{ / #.; o d.p.2.| r.=.K.E.|.Y.a.L.0.e.} } q.' 8.' } 9.' } e.} 8.0.e.0.0.r.",
"q.7.q.i.a.a.u.e.9.e.q.' ` ' 8._ ) 8.' 0.q.0.9.r.H.-.p.( ( n # X P q.F F ' 8.8.8.8.9.' ' 8.8.8.' ' G L G  .G _ G ' '  .8.8.8.8. ._ ) )  .8.0.e.e.q.q.q.a.f.p.i.[.|.|.`.a.p.L.H.L.H.q.{ +./ N : + a.D.1.X.1.p.Y.R.`.K.g.L.a.q.q.} } e.9.{ } q.0.r.0.} e.0.0.0.} 0.",
"X.} q.s.u.F.r.r.0.8.} ' 8.8.' ) ) _ _ 0.e.q.9.q.u.} / / ^ v @ X `  .~ ` ' ' 8. .' ' 8.' 8.9.0. .8.' 6.)  .' ! P ) 8. .8. .8.9. .8.' '  .8.9.` ' ' } } q.} a.q.U.L.P.U.(.K.g.U.u.X.| { ( 1.+.: $ *.q.2.} r.U.R.'._.a.e.L.0.0.} 0.} } 0.q.' } 0.e.D.q.e.r.q.} X.7.",
"} q.} q.q.u.7.0.9.0.9.8.' 8. . .` ' 8.} q.q.e.} { X./ G F v @ X ' 8.! ` | ) '  .) ) ' 8.' ' 8.' ) ' ` ' ) G } ` G ' 8.' '  .9.' 9.) ' 8.' ' 9.{ X.8.8.} } q.q.p.r.F.u.U.(.W.d.a.u.{ 1...<.@.& % q.r.<.L 1.g.g.4.s.p.a.L.a.p.-.r.' e.D.q.} D.D.D.q.} 0.u.-.} }  .",
"' X.D.q.q.X.} q.} } ' ` 8.8.| )  . .8.8.e.e.) L _ q./ ~ n v @ X )  .! b ! |  .) ) S ' ' ' ` ` ' D ) G F ) L 8.' ! D ' 8. .)  . .` ' 8.' ) X. .9.' ' `  ._ q.} q.r.X.u.g.`.{.`.K.a.e.p...@.%.: % } r.2.+.=.s.-.,.J.u.L.P.P.q.u...q.q.u.u.q.L.D.a.r.q.0.q. .q.8.' ",
"} 0.e.p.u.D.9.e.} { _ ` ' 8.` ` _ 9.' q.0.r.e.8./ r.| Q / F @ + )  .) S F ) G ) S G ' ' ' _ ! G S L / D ! _ 8.' ' ) 8. . . .' 8.8.8.'  . ._ ' 8.8.' ` 8.X.e.0.e.r.X.q.p.g.(.(.U.H.r.p.1.@.>.3 > ' r.1.@.&.!.K.p.p.d.I.i.g.T.U.T.H.L.a.q.P.P.P.g.H.a.r.e.0. . .} ",
"X.r.L.Y.R.H.r.e. .| ' ) ) `  .' ) 8. .X.D.r.r.r.{ r.L O./ N $ X P X.) ..` F S ~ ) ' `  .` ' G L ) ) } F F ) ) ) ) `  . . . .9.8. .' `  . .' | ` _ { ` } ' } X.e.e.X.u.g.U.(.p.a.u.1.1.@.@.@.7 > } } X.@.2.^.T.H.D.Q.T.!.g.(.!.K.g.p.H.p.H.P.a.T.I.T.H.r.e.} } { ",
"U.K.R.W.H.D.o...e.e.) ) ) `  . . . .8.r.X.D.o. .| =.=.=.k.k.$ + Z | / { ` / G ) F D !  .` ! S G { ) L S G ) | | ' ' ` `  .` |  .) ) ! ' ' ! ` 9. .! ' )  .` ) } X.{ 1.g.K._.`.Q.f.f.<.@.@.N 3 > G a.<.<.p._.p.s.K.f._.K.p.Z.`.`.f.f.1.1.p.f.p.f.g.g.p.p.| 1.u.r.",
"f.T.K.p.{ X. .|  .) ` ~ | ` | | ` ` ` X.o.|  .{ X.p.>.>.$.C @ X ! ..( / | ) ! F ! ) S ` ! ! ) / / K / F G G ` ` ` ! | ` ` | | Q F ) ! `  .G Q | ` ` | ! ' ! ` ! ) / { 2.1.2.f.g.K.Q.3.<.<.@.3 > P o.=.f.K.`.p.p.2.f.K.s.=.4.!.K.1.g.{ p.K.1.-.X.s.s.2.u.p.2.p.K.",
"=.<.=.( ( ..` | | | ~ ` ~ ~ ! ! ! n ~ | X...X.~ { ..<.<.O.m # O F ( n / ( { G F ! F ! ~ ! ! / F S N L L M ~ ~ / ` ! ` ! ~ ~ ~ Q Q F ~ ~ ! ! ~ | / ! ! F ! F F F ! ~ ( ( =.=.>.p.f.f.^.J.m.C 3 = G X.%.5.^.~.1.J.H.J.J.C.f.Z.C.f.=.1.=.-.5.1.{ { ( 2...u.X.X.2.-.",
"/ / ^ N ( ~ Q Q ( Q Q ~ n n b Q n k v F / / N N ^ ~ ^ ^ N d # $ S F s z F K F k k n Q ! Q ! F m M N M M K K Q ! Q ~ b b n Q Q n n Q Q Q ~ n n Q Q n n n F Q b F n n / ^ ^ @.@.<.3.n.3.<.%.C 3 = Q ( %.b.Q.J.3.<.2.J.Q.3.4.m.@.<.=./ ( <.@.@.+.^ / ( ..( ( @.^ @.",
"O.C ^ N Q n n Q n Q n n n v s N b b z Q ^ n N n ^ n n v m u @ O S b s z m s v v v s v F v n n s m h z s m k b F Q n N v n n b N v n b F n n Q n n v v b v v b b n v n N N @.@.<.5.b.b.b.z.k., & n @.b.b.3.3.<.<.3.5.3.b.%.C ^ ^ ^ N ( ( 3.O.N N N N N N N m N N ",
"3 2 , 2 3 3 3 3 3 2 3 , 3 3 , & : : % $ + + + + + + + + X + + o x ; + o o o + + o o o o + + o o o o o o o o o o + + + + + + @ + @ $ + @ $ @ @ $ # # # & & % # # : : , : & & @ # & , 2 7 6 6 6 & F 1 7 7 7 w 3 3 3 2 3 7 6 7 5 4 7 r y 7 y q 5 7 6 7 5 3 6 2 2 , ",
"= = = & = = = 2 > 2 = > > > * $ $ % $ + + X X X X X X X X X X   + X o o X X X X X X X o X X X X X X X . X X X o X X X X X X X O o + X o X + X X + + $ $ $ % $ & $ * * $ % % $ O $ = = 5 5 2 5 = & 5 6 6 5 5 > = * = > = = 2 5 5 5 r r 6 6 5 2 > 5 6 5 5 2 = = = ",
"=.S S { } e.} { } 7.' ] [ _ 6.G D 6.' [ 7.[ q.} t.} } L I I G ) _ ' ' ) D G ) _ P S D ' ' 6.' _ ' Z Z j Z ) D ' ' ' P ! D S h : k l l l ' ' ) P [ w.L.).`.d.h.} -.U.i.(.i.7.8.6.q.[ [ 7.{ X.} -.] I W W t.u.t.[ *.W y.V.t.:.L } q.q.6.[ e._ } 7.7.q.p.-.L ~ x : ",
"H 2.{ -.e.a.X.H.r.a.e.e.} } ) ` e.} X.u.a.u.a.p.-.a.L.P.p.1.} ` _ 8.' | ) D G ' ) | '  .'  .G ! ) F G F S ' ' ' ` ` ` ! ! b < % a G K ` |  .8.q.} r.r.r.p.L.r.L.H.p.i.p.P.a.K.H.D.r.p.e.e.H.a.g.g.a.1.=.s.s.s.,.4.,.,.L.a.g.K.<.} r.e.q.D.u.} q.r.u.e.X.| ^ 1 % ",
"S +.O.@.=.{ ( ..-.<...{ } ( / ^ ( ] ( / ] K Q b F F F ~ ~ F F n b F F ~ ! Q b Q ! F ! Q ) ~ ~ / F x / n G ) Q / ! ! K ^ n d # o h F k n Q n ! F ! ! ! Q Q F ! F Q K Q / / ..<.<...<.1.f.3.J.<.<.=.Q.3.=.X.3.C.n.>.$.T ( { ../ / / ..] { { ( ! / / { ( O.O.@.; % ",
"L / b.s.2.o. .| X.{ { ..p.p...( ..1...{ { / ~ ` ` G F ` ` ~ F ` ` ! ` ) F ! ` ` ` G ` ` ! | ' K S / / ` | ..| ` ! ` F n s s % $ l b v F Q ~ ~ ` ) ! ! ~ | ! ! G G { ..| } 1.e.p.J...=.K.K.H.o.p.u.f.!.u.K.{.!.U.p.o.{ { u.p.o. .X.1.X.{ | / ~ / { ....( +.%.; % ",
"[ } ^._.f.e.o.o.X.o.X.e.X.H.H.H.s.D.X.| { { ' ` | ) ~ / | ' ! ) ' ` ` ! ) ' ` ! ! ! ) ! !  . .` ] /  . . . .| ~ ` ! ! n v p ; % S ! Q Q ! ~ ` ` ` ` ` ) ' ` ` ` X.e.o.q.} e.a.p.r.p.1.K.T.J.X.H.2._.`.R.R.R.U.H.p.e.{ X.H.a.a.e.X.H.X.r.{ { | X.o.2.X.<.<.3., $ ",
"] 1.J.~.T.K.e.8.D.e.{ r.D.K.p.K.H.s.u.X.e.}  .} ` ) '  .) ' `  .' 9. . .| ' ` | | ` ` ) } 8.8.} ' ` ' X.q.` '  . .| ! n v p : % G ) ! ! ~ ` ` 8.|  .~  .8.9.8.| ' u.X.X.u.a.D.a.p.H.a.J.{.[.I.p._.[.T.R._.K.p.X.e.q.q.p.a.1.e.0.1.J.p.r.X.1.r.e.D.p.H.2.Q.3.3 & ",
"{ p.!.U.`.!.D.u.a.D.D.G.a.I.`.K.`.K.a.D.r.r.0.} ' ) ' 8.8.) ) ' ' | 9.'  . . .' ) ` ` 8.8.9.' 8.q.9. .{ ) X. .' ` ' ! S Q b , * _ ' / ` | 8.8.' 8. . .r.9.e.0.} ] u.q.] e.p.r.e.e.P.P.K.T.[.I.K.H.U.I.`.T.p.1.D.D.q.q.X.a.p.r.a.p.s.a.D.H.q.} q.D.H.5.~.Q.3.3 & ",
"X.p.J.].U.R.`.K.R.J.D.P.I.}.`.|._.[.g.H.r.X.X.' ' )  .8.' ) ) ) 8.9. .8.8. .) 8.8.'  .8.' 9.' 8.`  .8.8.) ` 9.8.` ` ` ! Q n 3 & l ' G ! '  .|  .'  .e.] ) e.r.| 1.f.H.L.H.D.q.r.D.H.p._. X{.[.T.P.[.}.[. X`.I.K.H.u.u.H.g.K.r.L.H.T.H.H.a.X.u.L.D.H.U.Q.J.<.w = ",
"a.g.2.p.L.H.H.a.R.{. XU.I.|.g.K.W.T._.H.} q.{ ' ' ) ) 8.' ' ` ' )  .8.8.8. .' 8.) 8.8.) 8.' ' ' 8.` 8.8.G G '  . .` ` ! ~ n 4 > ) ` Q |  . .9.8.9.0.e.} } e.F.g.!.K.(.K.L.r.0.P.P.a.g. XXX{.].[.[.R.I.T.T.|.L.P.a.g.H.g.(.}.P.g.I.I.P.a.P.a.u.U.p.U.T.~.2.@.9 > ",
").a.<.1.p.H.p.a.H.T.I.|.Y.g.-.L.J.I.W.L.a.} 9.) ' ` ' 8.8.' ' ) ) ` ' 8.8.' '  .) ) ) ) ) ) ' ) ' ' ' 8.' ` 8.' |  .! ` Q Q w 5 ) | ! | ' ' e.9.r.0.e.r.L.U.g.U.{.T.U.(.L.L.U.a.P.L.U.}.R.`.I.R.[.J.p.e.Y.`.K.H.u.H.p.L.`.].|.(.d.P.I.L.r.a.F.H.H.U.U.~.<.N 3 > ",
"s.L.{ 1.s.g.L.P.g.I.I.P.H.e.p.H.I.W.`.P.X.9.8._ 8.) ) _ 8.' ) ' ) ` ) 8.' 9.8.8.' ' ` ' ) ' 9.' 8.] ' 8.8.' 8.8. . .` ~ Q Q w 6 P 8.~ ` ~ 8.8.e. .q.r.F.T.I.a.L._.C.g.|.`.}.a.L.a.Y.U.|. XXXK._.p.U._.T.U._.a.P.H.U.a.L.`.`.P.P.L.P.a.a.r.a.L.e.o.H.U.J.2.^ 8 = ",
"*.a.....a.f.R.L.H.J.L.K.P.D.H.L.L.Y.U.P.X.e.}  .8.8.G ' ' 8.) ' ' `  .) '  .' ' ` ) ) ) ` 8.8.9.8.' 9._ ) )  .'  . .' ! ^ n w 5 '  .` ) {  .9.9.r.r.r.g.|.[.u.t.s.).|.H.R.}.a.F.p.a.(. X`.U.{.Y.a.u.J.L.W.K.).].U.Y.T.Y.U.L.L.r.L.a.u.q.a.a.a.a.K.R._.U...n 3 = ",
"u.U.<.{ r.u.L.I.P.H.L.P.H.P.P.T.U.R.r.a.} } ' 0.9.' ' ) ' ' ` ) ' ) '  .8. .) '  .8.'  .) ) ` _ } ' ' ) `  .9.8.! ' ` ` ~ n q 6 ) ' ] ] | q.8.r.a.r.a.(.).`.a.P.H.Z.`.D.|.U.P.H.a.U.`.Y.g.g.g.U.L.u.p.H.a.P.'.W.a.(.[.W.P.H.H.L.L.u.d.a.e.a.T.T.R.`.p.X.N v 2 & ",
"X.P./ X.o.r.D.p.I.P.g.Y.Y.T.`. X`.}.a.q.8. .' ` 8.' 8.8.' ' ' ) ' ) ) ` ) ' ' ' ' 8.` ) ` ) } ] ` 8.9.' ' ` 8.) 8.| ` ` ~ ^ q 6 ' 8.X...| e.D.e.e.q.r.L.s._.a.p.a.].V.T.|.I.r.u.u.P.|.K.H.a.a.a.P.a.r.u.a.a.T.|.[._.{.R.H.H.a.q.q.L.a.a.J.{.{.R.H.p.2.K n m 2 * ",
"q.T.` { p.H.u.I.|.P. X{._.T.{._.W.L.r.8.9.' 8.8.8.' 8.8.' ) ' 8.) ) ) 9.' ) ' ) ` 8.' P ` ' { 9.' ' 8.8.8. .' ' )  .` ~ ! Q 3 2 ' | ../ X.e.8.} } 0.r.a.-.a.u.e.L.i.P.`.P.h.0.q.e.a.U.g.U.u.L.P.W.L.a.a.q.u.g.`.U.`.{.I.H.D.r.u.u.H.u.i.p.`.W.I.{.P.-./ M v , % ",
"} T...e.o.r.L.p.W.L.|.}.[.`.W.g.Y.U.} 9.8.8.' ' ) ' ' ' 8.' ` ) ) 8. .8.8.8.' ) ) 8.8.8. .8.8._ 8.8.' ) ' 9.' G | ` F b / m , = P | ` ..8.q.q.' [ q.} -.] ] q.u.q.a.a.P.q.r.} e.} a.U.].g.L.U.K.P.L.P.a.q.d.`._.[.`.W. XL.L.r.a.u.f.g.g.K.[.[.K.T.U.K.@.K g , $ ",
"u.K.( o.o.D.P.D.P.H.I.I.P.`.K.[.T.F.} 9.9.8.) ' D D 9.| 8._ ` ) ) '  .8.' 8. .' 8. .' ' 8.8.' 8.8.) ) ' ) 8.' G  .) ` ` Q v , & D ' ! `  . .e.e.} e.q.a.*.] } q.=.L.P.L.0.0. .} } u.d.(.U.T.{.I.W.T.T.p.i.!.g.g.R._. X X|.a.a.p.H._.L.T..X{.`._.T.U.r.{ V m & $ ",
"d.Y.( { X.e.r.D.H.D.P.K.U.W.L.H.D.u.} q.0.8.' ' )  .'  .8.' ) ` ) ) ` ) 8. .' 8.' ' ) ) ) ' 8.` ) ' ` ) ' 9. . .8. .| ~ / n , & `  .~ !  .| 9.8.' q.0.q.u.} ] ] X.a.a.H.e.D.9.e.q.a.a.[.U.U.`.R.Y.K.T.R.R.(.(.g.a.g.T..X|.`.R.Y.g.{.|. X].Z.s.(.Y.p.K.1./ m : $ ",
"H.p.( =.e.r.e.K.H.R.`.I.g.u.D.e.r.u.r.8.8.8.S 8.9. .'  .) ) ' ' ' ) ' 8.9. .' 8.) '  .' ' ' ' G ) ) ` 8.' 8.8.8.8.|  .! Q n , @ ) ' ! `  . . .8.` e. .} q.u.] -.q.r.r.w.r.0. .] r.e.L.U._.|.`.|. X{.`.Y.!.`.i.u.p.a.L.T.U.I.U.P.U.R.`.R.Z.s.s.4.(.[._.J.c.C % O ",
"d.T.u.p.H.p.T.T.g._.T.p.u.u.q. .D.e.0.} G 8.) 8. .' ) ` ` ` 8.8.' ' ' )  .' 8.|  .) )  .' ' ' ' ) ) ' ) ) 8.8.'  .| ` ` n b : % P G ! ` ` |  .8.8.r.X.9.8.r.} e.q.a.u.r.r.r.X.' } p.1.P.W.}.I. XI.|.|.`.g.!.u.q.q.a.r.L.L.g.g.g.|.].`.s.B.d.=.*.s.`.C.b.M.$.; o ",
"d.P.3.K.K.W.K.p.T._.I.L.a.P.r.r.q.r.q.L ) '  .' 9.' ) ` ) ' 0.' ' _ X._ ` ' ' _ ' ) 8.8.' 8.8.) ) ) ) ) ) ) ) ' ' '  .! F v & % ) ) ! ~ `  .` 9.q.9.9.8.e.8.r.e.q.} r.D.q.q.0.} q.r.X.L.P.P.a.T.H.W.R.{.U.g.} e.a.0.r.q.r.a.I.'.R.`.,.C.C.-.{ -.=.s.,.v.c.$.% o ",
"a.a.f.f.U.[.T.H.a.L.L.i.*.-.r.D.] } 8.) ' G !  .8.8.' 8.' ` ' ' q.` ' { q.` } ` 8.) ) ' ' ) ) ' ' ' ' )  .' ' ) ` ` | ` n v # + ' ` F `  .|  .9.8.e.8.q.8.q.8.8.] X.8.0.q.8.q._ } u.i.U.r.P.a.L.L.L. X[.`.L.a.a.q.q.e.r.r.p.U.s.d.d.).(.C.*.*.] q.a.4.n.>.l.% o ",
"7.u.f.K.U.[.P.r.0.r.9.X.] { L G L ! D ! G ` 8.9. .) ) ) ) ' ' ' q.} q. .8.8.{ _ ' ) ) ) 8.' ) ' 8.` ' ) 8.) ) ` ) ) | G n F # o ) ' Q `  .'  . . ._ 8. .r.8. .9.0.9.8.8.8.) ` 8.' u.a.U.a.U.H.p.r.L.P.T.a.u.q.q.q.} 8.0.} a.=.u.f.K.{.s.a.*.] { } =.&.,.n.z.+ o ",
"-.1.5.!./.T.2.D.e.q.r.0.r. .] ) G ) G D  .'  . .) ` ) ) ) ' 8.9.8._ 8.8.' 8.8.8.8. .) ) ' ) ) ' 9.8.9.8.8.8.8.` ! ! G F ! n @ o P ' Q ! ' |  .' e.' X.8.9.' 9.9.8.9.9.9.' X._ ' ' } p.d.a.P.H.p.u.F.a.p.P.a.g.q.0.8.9.} } L.K.u.s.'.(.s.,.-.] -.] 1.+.>.,.$.+ o ",
"+...J.J.J.U.K.L.r.e.X.q. .` } ' ! G G | ) '  .| ) ) ' ' ) ` ` ` 8.' | ' ' 8.|  .8.' ` ` ) ) ` ' 8.` 8.| 9. .'  .| ` ` n Q n @ + ) ' F G ) ) ` ' | 9.8. .9.`  .9. . . .q.` ` ) ` } { } e.u.H.P.q.X.X.q.e.D.e.o.p.o. .0.r.r.D.u.-.,.B.s.-.u.s.&.{ R -.=.4.$.T + o ",
"1.D.J.~.J.U.[.T.g.D.e.8.| e.X. .` F ` G ) '  .` ` ` ` | ` ` ! |  . .` ! !  . .` ! ) ' ) ` ) ) ! ! ` 8. . . .| | ! ! ! n b b @ X G ! F ! ! ! ` ` '  .| ) ) ) `  .8.) ' 8. .e.{ { { q.q.} 1.H.0.{ } } | e.e.e.e.H.H.q.q.e.r.H.u.4.C.C.d.p.e.1.e.X.} { &.@.$.#.o o ",
"{ o.( 2.J.K.D.3.K.e...| { X.|  .` ` F ! G ` | ` ! ` ' ! ' ! ~ )  .| | | ` ` | / ) / ` ! ! ` ! ` ~ Q ` | { | ~ ` ` ` Q Q n n + X F ! b b n ! ~ ~ | ` ! G ! ! ! ! ` ! ) | | ~ ~ ` | X.q...| | ) ~ { / G ` ` o.o.f.e...X.o.X.2...=.,.,.4.1.1.e.X...{ { { O.#.T + o ",
"/ e.( ..2.J.o.....] / / ` | ` ~ ! ! ! F Q ! ` ! ~ ` F F ! ! / Q ~ ~ ..` | ` Q | ) ` Q ! Q F ` G F ~ ` ` ` ` F ! ! ~ ~ n n c # X D ~ b n F n ! ~ ` ` F F ! ! ! Q Q ! ` ! ~ ` ~ ( ` | { { ! / Q ! ~ ~ ~ ) ` | | u.2.X.....{ O.( ;.>.c.O.+.( X.` / { o.( K B B o X ",
"L { / @.<.@.( ..( ~ Q / Q ~ ~ n Q F v v n Q b n n F b n n b n n F ( ( / / / ^ ^ / / G ^ F F F n n n ! Q Q ~ Q n Q Q n n b c # X F F v v F Q ~ Q Q n b n Q n n n n ! ~ n Q Q ^ Q ~ ( Q / n n b b Q n n ~ / / ( ( <.( ....( O.M T +.>.{ =.^ ^ N n Q ..^ N M C + X ",
"x ^ O.O.^ N @.( ^ ^ n n Q n Q n F v a a b n n Q n n k v b c b v N n n ^ Q N Q N N N N N K n F n n c n n n b n n n n c v v p + + b G c v b n b n n b b N n b n v v v b b n b n Q b m m v v v s c n n c n n N N Q ^ / N N M m m ^ @.@.@./ N m m m n ^ n N N g + X ",
"f : & & , 5 3 7 q 7 6 4 4 5 3 7 7 7 6 3 3 4 3 2 2 , : # # & @ # + @ # + @ # @ $ @ + + o + + + + + + + + @ + + + + + + + + + 2 o h - + @ # , , 2 q y q q q 6 w 7 9 3 7 3 , , 4 6 4 , & & # & + + @ + @ @ + # @ @ % @ + % o $ $ + + $ + + O @ @ # & % $ # @ % 2 X ",
"+ + $ + * = > 5 5 2 > > 5 2 6 6 5 5 > = * = > % $ $ $ $ $ $ O X X X + X X o X X o X X X o X X X X X X X X X X X X X X X X X X * + o o $ $ $ $ & 5 7 6 6 6 2 6 5 5 > 5 > & = 5 5 2 = & % $ $ + X X X X X X X X X X o o o o X X X X + X X X $ $ O + $ O + + $ $ $ ",
"G L _ ] [ w.q.i.Y.L.`.(.S.h.).U.d.y.I P P ) D _ ' D l S D S k o &.l S Z D ' ' 6.' ) 6._ ' D _ ' 6.' ' ) ' ' 6.D D G G P _ P P } 7.7.q.q.6.] _ 8.} D [ -.] d.u.e.w.g.g.K.-.Y I J J Y ;.E R R &.3 K =.J U J J :.v.:.N.V.d.e.7.I [ W t.W *.u.S.Y.t.).t.i.q.7.G ] D ",
"1.H.s.H.a.K.U.L.P.K.L.p.*.u.r.r.u.u.u.} 8.` ' _ ) ' F Q ! Q - o h 1.b S G  .9.| 8.8.' ) 9.| '  . .6. .9.` ' 8.8. .` ) ) 8.) ` )  . .6.| 8.e. . .9.e.! 8.q.r.r.r.u.r.a.{ -.*./ / / &.+.>.5.1.0 % G ( -.1.=.>.-.-.u.:.-.s.L.a.=.g.g.U.s.s.a.H.a.=.a.U.H.P.a.p.] 1.",
"! G ^ ..+.<.1.u.<.-.( M b b ! Q ! F b F Q F n Q F Q F v v v o o i M g b n ! ~ / Q G ` ~ ~ ~ ! ! ` ! ! ! ~ ! G b F F n b ~ F b Q ! ! ~ Q G Q Q ~ F ! F b F / Q ! ! ) / / H K K M H K k b s p % + / ~ n k k k b z N K b / / / N Q / ( F M M b N ! ~ ~ / Q Q ! / b ",
"! ] { <.-.1.2.u.o.o.{ L F G ~ ` ~ G F ! ! F ! ` ` ! ! Q n b o o i S z z b ! ` ~ Q ~ ! ` | ` ` F ! ! ` ~ ! F ! G ! F ! F ! ! ! ` ! ` ` ` ! ` ! G ` ! ) / / ` ~ ` / `  .{ ` { / J / / M b s p # $ G ! n v S b l M / / K ~ / L F G { O.L l F G ~ / ` ` F ! ` ` ! ` ",
"` X.} X.H.1...a.p.X.{ ` ` ' | ' ' ` ) ` ` ! ` ` | ~ ! ! F b + X i S k b F ` ` ` ` ' G ~ '  .` |  .! ) ) |  .` ! ' ! ` ` ) G ) ` ` ' ) |  .`  .' ) | ` q.] ' `  .` ' ` ! ' { { ] } X.N F b p % % ) ) F b S F / L R L ` { L } G ] | e.{ ! ) ] _ ) ` )  .` | ` ! ` ",
" .' X.1.H.2.X.q.q.r.X. .` ' 8.'  .| ' ' ) ` ) ` | ` ~ ~ Q n @ o G ' l b | ! ` ) /  .' ` `  . .'  .) ` ! 8. .` ` ) ' ` ) ) ! ! ' ! ` ! ` ` |  .G ) ` 8.r.8.8. . .! ! '  .} q.r.{ L L K Q Q s ; o `  .F Q F ] ] { ] ] } X. .{ F ' ) q.e.r.{ G / S ) ' ` q. .| ) 8.",
"8.q.8.r.P.F.a.u.{ } X. . . .' ' ` | ` `  .) `  . .' ` ` b s + X Z ) v b ` | ) ) ) ` 8.`  .8.8. . .)  .' | ' 8. . . .` ) ) ' )  .G G  .` 8.' ' 8.` e. .e.9.' ) ' ' ` ` 9.X.} r.q./ ] L / Q s % + )  .! ! S / ] e.e.q.9.q.{  .` 8.| 8.q.X. .q.' ` ` } ' ' ` |  .X.",
"9.X.e.1.P.K.D.a.} u.} q.X.X.q.8.8.9.8.8._ ) ) | 8.| ` Q b v @ X )  .b ` ` ' ` ` ) ` 8.' 8. .9.' ` ` '  .' 9. .9.`  .' ' )  .) ' ` ' ) 8. .} { 0.r.8.e.9.e.0.X.' } _ G } ] q.a.a.u.=...~ F s % + G q.Q ) ! G ] q.r.0.r.X.} ] ` 9.X.q.r.r.q.X.8.' | ' G 9.} _ X.e.",
"q.D.L.L.P.H.H.a.g.s.e.q.0.X.9.8.' 8.9.0.q.8.' 8.9.' | ! ! n @ o D } F ` ` | ) 8. .' '  .' 8.) 8.' ' 8.8.' 8.8.8.' 8.8.8.' ' ) ) ) ' ) 8.0.0.0.r.0.r.a.e.) 0.9.] ] ' ) I } H.H.P.a.J.e...( N # $ Z { b ! ' ] ] r.0.e.q.q._ ] ) X.0.0.e.r.r.q.q.[ ] / _ X.e.q.X.e.",
"u.L.I.`.R.P.T.I.a.i.i.H.a.a.r.0.q.e.8.q.8.e.9.9.8.8.| ) Q n + X J L k ! ) '  .9.' 8.' ' 8.' ) ) 8.8.8.' 8.8.8. .9.'  .' 8.)  .` 8.8.8.8.9.0.D.a.r.P.P.r.e.X.) e.9.r.] } r.W.|.W.U.!.u.o.{ K , % ) g.K L { }  .q.r.8.' _ ] ) { 8.0.r.r.u.r.q.q.' } [ ) X.q.r.r.a.",
"U.U.Y.[.R.|.I.T.P.K.d.K.U.U.q.e.e.e.q.' X.9.e.r.e.X.' ~ F n + o W +.k S G  .8. .' 8.' 8.' ' ' ' ' 8. .8. . .8.9.'  .9. .8.` 8. . .9.8.' 8.q.r.a.a.L.F.F.7.] G 8.} q.{ q.a.|.T.L.W.!.p.<.( N , % P H.{ / { 8.8.X.8.q.8.] ' 8. .X.q.q.q.H.u.e.0.e. .q.) L r.H.-.a.",
"K.U.p.T.{.|.|.W.(.R. X{.R.T.U.p.P.r.r.0.e.0.e.r.q.o.../ N b + X t.=.k ~ |  .9.8.' 8. .' 8.' 8. .' ' ) 8.8.9._ 8.8.' 8.8.8.'  .8.8.8.8.8.] ] } q.} H.e.r.0.q.} 0.F.D.e.e.U.L.a.r.2.T.U.p.o.( : % ] q./ ! ` {  .8. . .'  .) q.8.9.9.r.X.q.P.r.0.q.e.} ] [ a.p.s.a.",
"e.a.L.T.`.{.W.{.`.T.P.P.P.T.L.W.a.L.0.0.e.r.D.q.r.p.e.2./ N + o a.u.l S  . .8.' ) 8.' ' 8.8.8.8.) ) ` ) 8.' ' 8.8.8.8.' 8.'  .8.) 8.8.8.6./ } [ 0.a.e.r.r.r.e.r.H.a.q.T.W.u.D.r.r.a._.f.-.N : % [ e.! ! ` ' 8._ ) X.' ] ' 8.8.9.q.r.e.e.r.D.G.a.q.] { *.a.L.a.r.",
"u.H.`.|.|.|.|.U.K.p.L.U.I.L.Z.`.`.Y.p.a.} H.a.r.r...e.X./ N + o y.-.b ) ! 8.' ' '  .G G ) 8.8.8.) ! ' ) ) 8.' ' 8.' ' ) 8.8.8.' ) ' ) 8.0.} ] q.D.a.r.0.r.u.] *.F.R.Z.E.L.} a.a.I.J.f.f.( F : $ } H.! b F G )  .`  .) ' ' ]  .q.9.q.q.0.e.F.L.r.] q.u.u.r.r.r.r.",
"u.L.U.Y.`.XX XU.H.I.T.L.s.H.d._.`.I._.a.e.T.H.P.H.e.| 1...^ @ o g.s.Q ) F 8.8.8.' ' ' P ' 8.' ' 8.)  .) ` ' 8.' 8.' )  .) 8.' G ! } 8.e.} ] ] } 0.H.D.D.D.F.{ q.L.g.'.T.L.r.q.I.P.J.H.../ n # o ] u.G F F ) G G G G | 8.8._ ' 8.9.r.8.9.e.} q.r.q.L.a.a.} q.e.e.",
"a.R.[.U.T.P.U.T.T.U.P.L.u.p.s.p.P.a.`.W. XT.H.T.H.H.-.1...^ + X &.a.N S S ' { ` G ' ' '  .8.' ) ) ) ' ' ) ' 8.8.8.` ) 8.8.8.8.' ' '  .} 8.u.] L.L.L.H.a.I.W.-.-.s.[.R.p.u.&.d.W.W.L.<.../ ^ ; $ u.a.F S ! S S L ) J  .9.e.q.' ' ' 9.8.8.' q.w.0.8.r.L.I.g.q.L.F.",
"H.[.R.I.`.Y.I.W.{.I.H.P.H.r.r.L.L.q.U.U.`.|.`.j.`.U.p.1.( N + X *.,.Q ` { e.e. .} ]  . .8.' 8.' ) 8.8.)  .8.'  .' 8.)  .8.' ' '  .' } } 0.-.-.R.|.T.F.I.`.Y.`.[.I.U.}.d.} *.-.U.`.P.| ( G n @ o ,.K.F F ! G ) | L ! e.8.e.' _ G ) _ 8.' ' [ r.9.8.e.r.a.q.L.F.a.",
"a.a.u.u.p.`.`.`.W.Y.R.R.a.r.p.U.U.L.(.(.(.(.`.`.T.K.H.{ O.K + X Y ,.b / H ' 8.' ' ) ' ' ' 9.' 9.) ' 8.8.' ) 8.' ' ' ` ) ' 8.' ' G L ! L X.r.P.L.U.W. X|.R.P.W.I.L.u.U.u.] } 1.Y.Y.H.r.X.^ v & $ -.a.~ ` F G )  .` _ X.0.8.q.! ) ] L ' e.' q.r.r.X.q.e.0.} F.a.i.",
"} ' ] q.q.K.U.`.R.T.L.a. XP.W. X Xg.H.a.a.L.a.a.e.e.X.| K M o o d.=.G ` G | ' G )  .8.' ' 8.' 8.) ' ` '  .8.8.'  .` ' ' ' ' ! ` G _ ] ] q.w.0.-.).{.|.}.U.`.[.W.I.L.R.L.-.=.s.U.1.p.| | Q g @ o (.d.F ! ) ) ' 8.9. .} } ' 8.) | ) _ G I { 0.q.8.q.9.9._ 8.X.e.` ",
"] ' 8.' ' u.P.I.I.P.a.H.|.`.|.(.].Y.L.L.q.H.u.e.e.e.| / M b + X ).r.N G F ) S ' G 8.8. .) ' ) ' 8.' 8.` ' 8.8.8.' 8.8.' 8.) D ) ) ' 8.G } r.D.u.s.`.`.C.!._.`.Z.R.U.Z.a.} =.B.s.g.H.{ { ^ K @ X ).I.! b ) ) ' 9.8.e.} ` } _ G G G G G ! P q.8.e.' 9.8.8.' X.8.' ",
") ) `  . .a.r.L.L.P.U.L.K.U.P.T.{.`.d.r.e.} a.e.e.q.| / l v + o 1.-.k b F ` '  .) ` ) ' ' 8.8.8.8.8.9.' )  .` 8.8.8.8.'  .` ) ' ) 8.8._ e.X.e.X.s.Z.Z.Z.1.(.Y.g.(.(.U.=.] p.`.1.r.J.r...{ N @ o g.K.! ! ' ) '  .' ' ' 8.' ' D G G G G ' ' 8.0.e.' 0.9.' 8._ 8.` ",
"_ ) 8.9.0.} } a.H.L.a.U.`.Y.R.[.(.U.a.a.a.X. .q. . .| ` v m + o d.*.k b G G D ' 8.8.G 8.8._ ' 8.8.` ) ) ) ' 9.8.8.) )  .8.' D ` ) ' 8.} e.q.q.-.4.Z.s.Z.).g.A.B.'.d.=.-.*.s. XK.a.a.r.@.<.^ @ o '.g.F F ) ' '  .' ' 8. . .' ) ' ) ) 9.8.' 9.F.q.r.} ' ) ' ' 8.' ",
"` ) ` ' 9.q.q.q.r.r.q.u.a.`.(.XXY.U.a.u.q.X.8.8.'  .| ~ b k o X d.{ b b S ) ' ) 8. . .9.8.8.' 8.8.' ' ' ' 8.8.8.8.' '  .9.' F D D G ) 8.q.X.q.-.-.s.Z.B.(.`.Y.!.(.d.=.;.1.U.I.[.H.r.X.o.<.( $ + s.f.F ! F ' 8.! 8.8.) ) ' ) ) ` ' ' ' '  .' e.8.' e.' ' ' ) ' ' ",
"' 8. .] } X.0.r.p.a.u.u.g.g.g.|.].U.a.a.r.e.8.9.'  .) G b b + o g.} G b / ` | ' ) D ! ) 8. .8.8.' 8. .8.' 8.' ' 8.) 8. .' 8.D F F F D G ' ] } a.,.y.s.T.{.U.I.T.g.s.-.=.s.H.(.[.L.r.+.{ { / + X y.-.! ) !  .' ' 9.' D D F D S ) ` ' ) ' ' 8.e.8.8.8.'  . .' 8.) ",
" .) ~ ) X.| q.q.e.f.p.f.Y.K.J.(.T.a.p.H.q.r.r.X.X.'  ./ m v + o a.H.! ! | ) ' ' G ' |  . .8.| 8.)  . .) ` ' ` 8.' 8.' ' `  .` ` ! ` G L / / { =.u.g.R.~._.H.R.H.f.s.4.-.p.H.a.`.K.K.o.O.3.N @ X a.g.Q ! ! ) ! q.8.G F G S F ! ) ' 8.'  .8. .8.` ' 9.' | ` ` ' ) ",
"' ` ) )  .} ] } p.2.g.].(.!.K._._.J.a.p.q.a.1...| { ` Q v m + X K.H.Q ~ ! ` ` F ! ` `  . .)  .` `  . .! G F ) | | | | ` )  .! 9.' _ F F L / } e.u.U.T.H.H.H.H.H.T.p.u.1.+.] ;.p.K.`.J.m.%.N @ o i.p.Q / S K ' ] } ! S ) G G F )  . . . . .~ ) ) ' ) ' ` ` ' ` ) ",
"! ! ` ) ] ! ` | X.H.f.s.!.J.p.K.a.g.H.5.u.4.<.X.X.| ) ~ n v + o 1.p.n Q ! F b G F ) ` | ! ! ~ | | ' ` ` F ! ) | | ` ! ! ` ~ | | ' ) S M S ) ..e.H.R.`.H.2.H.J.H.p.1.( 2.-./ +.-.T.f.J.@.Q.@.+ X R ,./ Q / / / G ~ ! S F F G ) ` ! ) ! ! ! ~ ! ! ! ) ` ` ! ` ! ) ",
"! ! F ~ / ~ ! ~ ` 2.1.^.^.Z.f.~.!.p.p.4.5.>.=.<.../ / n v a + X >.o.n Q ! Q G ! ! ! ! ` ! ! ` ~ ! ! ` ` ! F ! ~ ` ` ~ ! ` ` ` ~ ~ / l F ~ ..~ o.p.U.Q.J.2.o.<...<.=.@.....o.;.K <.@.@.@.^.O.@ X V p.n Q ~ G F G G F l b S F / ~ F F ! F / G Q ~ F ! F ! ! Q F F ",
"b n F n F Q ! Q ^ ^ 2.C.m.4.b.2.5.Q.3.5.b.$.1.1.n ^ v s s p o X 4.1.b n Q b Q Q Q n F ! Q v n ! n Q Q ~ Q Q F Q Q b v Q Q ! Q n n K v b Q / ` ..=.C.m.@.+.@.5.( ( ..@.( ..( ..( ( @.#.<.n.C @ X O.%.N Q Q b Q n b k b v k n v Q F F n b Q n n n Q Q F F n n F n ",
"v N v N m b n n ^ @.O.3.%.%.%.b.3.m.%.3.z.b.4.%./ ^ s p p u o X 4.@.c b n n v b n v F b n s a v b b p n F Q n n n v v n n v N b b v k k n ^ Q @.O.c.l.z.O.C +.N m N n N ^ ^ @.@.<.%.%.$.O.g @ X V <.n v n n n b k s s k b k s n n v b b b v v b n n b b v b v v ",
"+ + + @ & & & 2 > : > & & > = 2 3 7 7 q 6 7 5 6 7 7 5 : : 2 o X @.1 % @ + + + + + + + + + + + X + + + + @ + @ @ + + + + + + o o o o o o $ + @ + $ + % % & = > 5 6 t t 4 3 w 6 7 7 y t y t 6 + X +.9 : & & % # # @ # % @ # % @ % @ @ + + + + + + + + o + + + o + ",
"X X X + $ % * % % & & * % & & & = 6 5 6 6 6 2 = 6 6 2 = = = $   > $ $ + + X X X X X X X X X X X + X X X X X X o o X X X X X X X . . X X X X o o o o $ $ $ % * > 6 6 6 > > 6 r 5 r r 6 6 5 = % . > % % % % $ $ $ $ $ $ + $ $ $ $ + o X o X X + X X X X . X X X X "
};
