/* XPM */
static char *north[] = {
/* columns rows colors chars-per-pixel */
"128 128 188 2 ",
"   c #191712",
".  c #1D1B15",
"X  c #201D17",
"o  c #211E18",
"O  c #25221B",
"+  c #29261E",
"@  c #2A2720",
"#  c #2D2921",
"$  c #322D24",
"%  c #353027",
"&  c #363228",
"*  c #3A352B",
"=  c #3D392D",
"-  c #403B2F",
";  c #433D31",
":  c #553D3A",
">  c #5A3D3C",
",  c #633F3E",
"<  c #464134",
"1  c #494235",
"2  c #4D4639",
"3  c #4F483A",
"4  c #51473A",
"5  c #5C413E",
"6  c #544B3D",
"7  c #594D3F",
"8  c #62413F",
"9  c #5E4341",
"0  c #574F40",
"q  c #5A4E41",
"w  c #575040",
"e  c #5D5243",
"r  c #644542",
"t  c #6A4644",
"y  c #654945",
"u  c #6B4946",
"i  c #674C48",
"p  c #6D4C49",
"a  c #704746",
"s  c #714847",
"d  c #734D4B",
"f  c #7A4E4D",
"g  c #615546",
"h  c #635847",
"j  c #635748",
"k  c #6E504C",
"l  c #655A49",
"z  c #695D4C",
"x  c #75514E",
"c  c #7A514E",
"v  c #765451",
"b  c #7C5451",
"n  c #775854",
"m  c #7D5955",
"M  c #7E5C58",
"N  c #6C614E",
"B  c #6E6350",
"V  c #716553",
"C  c #756955",
"Z  c #796B57",
"A  c #7A6D59",
"S  c #7D705B",
"D  c #80504F",
"F  c #835553",
"G  c #895655",
"H  c #845956",
"J  c #8A5857",
"K  c #855B58",
"L  c #8C5C59",
"P  c #925D5B",
"I  c #985F5E",
"U  c #86615C",
"Y  c #8D615D",
"T  c #93615E",
"R  c #99605F",
"E  c #80735C",
"W  c #8E6360",
"Q  c #956361",
"!  c #9B6361",
"~  c #9C6865",
"^  c #9A6C68",
"/  c #916964",
"(  c #897B64",
")  c #837661",
"_  c #9D7469",
"`  c #9D7D6E",
"'  c #96796A",
"]  c #A16664",
"[  c #A36866",
"{  c #A66B69",
"}  c #A96B69",
"|  c #AC706D",
" . c #A47A6E",
".. c #B1716F",
"X. c #AF7F74",
"o. c #A47E71",
"O. c #B67372",
"+. c #92836B",
"@. c #98886E",
"#. c #998A70",
"$. c #A48374",
"%. c #AB8375",
"&. c #AB8876",
"*. c #AE8778",
"=. c #AE8B7A",
"-. c #B18377",
";. c #B38578",
":. c #BA877B",
">. c #B48B7C",
",. c #BB8C7E",
"<. c #B5917F",
"1. c #B9907F",
"2. c #C08D7F",
"3. c #BB8F80",
"4. c #BB9382",
"5. c #BD9987",
"6. c #BF9B8B",
"7. c #B69482",
"8. c #C08E80",
"9. c #C88E82",
"0. c #C39384",
"q. c #C99586",
"w. c #C49886",
"e. c #C69689",
"r. c #C99688",
"t. c #C49B8A",
"y. c #CA9D8C",
"u. c #C99A87",
"i. c #D39A8C",
"p. c #CD9E90",
"a. c #D59F91",
"s. c #CEA18E",
"d. c #C4A08F",
"f. c #D1A18E",
"g. c #C6A492",
"h. c #CBA493",
"j. c #C4AB96",
"k. c #CCA995",
"l. c #CDA798",
"z. c #C4AC99",
"x. c #CDAC9A",
"c. c #D3A393",
"v. c #D3A995",
"b. c #D3AC9B",
"n. c #D9AC9D",
"m. c #D9A894",
"M. c #C6B09E",
"N. c #CDB29D",
"B. c #D1B19E",
"V. c #DAB39C",
"C. c #C5B2A2",
"Z. c #CCB4A2",
"A. c #CEB9A4",
"S. c #CFB7AD",
"D. c #D2B4A2",
"F. c #DBB5A3",
"G. c #D3B9A5",
"H. c #DAB9A6",
"J. c #D6B7A9",
"K. c #D5BCAB",
"L. c #DCBCAB",
"P. c #D5BBB3",
"I. c #DBBEB3",
"U. c #D5BCB8",
"Y. c #E2B7A8",
"T. c #E3BDAC",
"R. c #E0BEB1",
"E. c #DAC0AD",
"W. c #DCC1B3",
"Q. c #DCC3BC",
"!. c #D6C1B7",
"~. c #E3C3B4",
"^. c #E3C4BB",
"/. c #EAC6BB",
"(. c #E3CABB",
"). c #EEC8BE",
"_. c #E8C6B4",
"`. c #E4D0BD",
"'. c #E4C5C2",
"]. c #EBC6C2",
"[. c #E5C9C3",
"{. c #ECCCC5",
"}. c #E7CDC8",
"|. c #ECCEC9",
" X c #F2CDCA",
".X c #ECD0C9",
"XX c #F3D4CA",
"oX c #F2DDD1",
/* pixels */
"{.H.H.c.t.0.^.J.b.t.'.R.^.F.F.I.F.F.P.D.I.I.b.c.n.B.l.y.H.I.h.L.J.k.N.z.L.K.N.d.d.B.N.{.|.x.P.D.K.M.B.Q.~.g.E..X!.D.c.}.Q.W.t.@.(.k.k.U.k.M.g.N.D.u.r./.R.^.l.L.E.|.A./.J.J.[.I.H.H.L.~.R.R.n.p.D.!.B.L.^.g.L.W.W./.x./.P.I.I.A.~.J.E.A.d.!.K.G.t.k./.~.~. XL.@.",
",.G f t f b G b G H H K I F d c G d t b p x L n J v d b G F P J G f x n k 9 y p Y G L T c s c H H G x Y n x Y J d G F c d d u Z %.u b d x x p d d c L L W m H y H p b d v Y J P b G f I L v p d H > b v 8 r b K c P G F F d x H H b t y 9 K U x c L G d J y c l ",
"2.F P f G Y L Y ] D { ! J I P H P f P G Q K Q J L b v T G K G f F c b p b v m K T d T x r p c x ~ T m H n T U Y L I b v x x T N w.L r n L y r b x L f H H F d T H k T K Y b v G I P P F P f s x p H v s r H m G G L R G c x L H F u d y b m x b H b y P f t L g ",
"0.D P d P L Q L P ~ P L ~ D P G F F F G G P L F L K c F Q G F F x c H x F b s T D U K F x K H Y x x i T L n K x { d J t H F d A ;.y J H x x p H F P I v c y H Y K Q Y ! b f ..T J T P G s F f d p s x p x L Q L R ! ! F c d b d t u y G K Q K T L b F F D J L 7 ",
",.P G P ! L L I { J H ~ ! G b G F v s L I G v c f c K G v d G d F T G L d c L F c J J b b U ^ b m v Y T T n K H v F L F K n d C t.b G d f d t s H L P P F v K F L G I F J ] P J ! I F F F J v f b d x x x v K L T L P f G L H H f H ! I H F L G c F F F c P L e ",
":.s D G G L F T ! G K L c F m L F b P I ! s f F v b c v f J x d L H L b c P T D T ~ c m u H T L b Q L n T K m k P m c G F p d q V.c c F T s F I G F c J F G F L P P R L T I L J G d L P G b K G c H H G x c H H ! y c L f T Q F H F c f J H H s P d u f Y F c 7 ",
"*.J T R T R G T I v L v G c p u f c F F G f f f p s f f b d d K L L F H P R I G b G f x m n ! m P J G L m F x n r F i d b b T 6 >.G F P L P J F H F G J d G H T b L ! J H H P L F G T P b G x u y c c c b L Y H F F H G m P Y x P P P I c s s F P b F P d G x l ",
"u.] J f G F L L I L P P F b b H v m K K K d t F f f d v p y m H H T L Y K H P ] L F J c ] T L x b H H H x d x d f b i k H H F e  .G J F b P D F F H J t f G [ F H T L b F H H H K K K G P d y x H G T G J K c c F P R f Q L ~ J F L F f t G L ! P u c d u d d 7 ",
"q.I R T L d ! H L P ] F d d x H f H H c c c t y d f b F m c H T L P P J F R ! G b G K ! Y H b x L b m m f d F p m v d L L x x l :.J F c T J c G G b D G D I G H H K H Q b b L L T c F c u c f y G c u c I J f P D L ! R R L G P J D F G G P G c d d d 8 c c K 6 ",
"i.I J F f Q { R ] L J f x H H b x c F F d a t f F m J H F H T m F G L F c L P d b K m p J d G F F b b H t L H p p c n L v f v g >.t d p F f f u c J J G G L G T Y T ~ L H T m P L n b H L G b T T D J L P G G D L ! T ! R R F G D G a F c P d D d x x x c K K ( ",
"m.I J ! L ! } P J J G c m v d m c f F f f D J c L J ] F x L P m u G c d L L F d b f b m Y b p H f a H v G v x b r m v H x x s 6 *.F f c G d L F F L G F J L [ ! Q L Y K T T Q R U b K ! J L I G F G J T F D L P J P [ P } G c F H p H u f c f F d F d x b m H C ",
"v.b G ] [ ] I L ! P c b F b H d G T L G f f c G ! H b G b L L P c H F b T G G G J Y L L R b d f F ! L L v L G t p K x c v d b V ;.d t r f f f d t J G G F P P P ! T [ H L L T H H H K c c H F F G D P d G L R H I } ] ] P J F F x x s d F F f H G c F L P ! R g ",
",.} T ! Q Y K F F J b c F F F t T I f F c x L T T P c P T c L F F P F G P J J D P G F L Q x G p F b F H F G b b b K n K c P d z >.p c L c J G D G G c R P L T ! L G L ! P Q c H H x f v F d F G G F D d G F H J ! T G F p c c m K a s c c d D D f v T F L L P g ",
"y.] L ! T b H H K b b K I m J L K x s F x L c D G u d b d x G c G G J J R P I J f G I R G F s F f v F G H J f L m L K H ! x G z <.d G F c G F I P ! J m G H Y b F P Q ! P P T H f H b c P b G H c b G L K b P P L x L b x F G p d p t c f D F G D G J T G J F Z ",
"n.[ b H T H b J n n K P J L J F D c F G b D F c x c x k p x b f G F T P f f F D I P F L ] f F P ! K L m b F v H L L T F D G T e i.T G F D F Y L P b c L Y T b c G L T P R K c x d H F T I H I P G P L R L d F F t f J J d f D d p t d d F G J P D G ! P J L I g ",
"a.} T H L v G L K F P b L J J G c D F F H F F F b y x b x p x b b b J F f P P T H b U b u J F L T ! K y f c F F G K Y Y H F H e 9.b m d m K Y H F J G G P G F ! P [ [ R P F c x c c H G L G f P T T L P L L K p x K c x t F P f f r p d G L I D F I ] I K b J 2 ",
"*.T D U R L H T K J L R L K c c d b b F f F x d p b i p d p m L x K b x b F P v b L b H L P G G ] L f b n U T L H T L b b m G h ,.F c L U T F m b ! H L H b P P ] T ! J G I P G b T P ~ F F ! K R I I [ F x p f c c u c f F J F u c H b F F L G J T P W J v I ) ",
"V.P m J T c L F T F D c ] H x y d b b v n v d v p x f v v n K k c x b G H c v F b b F v F v f P ! F F H c x G H H K Y ! b T L e t.J x Y U H J U L L H F F ] P P P T I J F L P F c L ! F d G I m b H L F c Y L H b H G d G G L G G P L F H K L T P J L W W L L j ",
"r.H F Y L L [ F U K L L D F F H m K n v m x m d p H x m U b k b H b d b b b b b x b d H f v T G G d c c G H Q K T U ! F I P L Z >.c x y m x J K H J c G ! T T } ! ] F f G G J F G K K F P P G L J c F F L T F H b H d F J J G G H W c G L I I P f L ! L d G F 0 ",
"0.H m K [ ! P P ] R c m J c c x p x p m p y b v v m k m K b b m d d c F T f G x d v x L f m L P I D b c F L T Q v L F P G G f N t.F x H H c m x H d H H F L } T P H G c F P J D H L L b F f G F H G b b ! m F F F y d f D s d R L L I ! H P L D G J P c K K P 4 ",
"i.J x b T Y c L ] J P L x L c d p d x F F H b x K m d n b x v b b b G H P F G d v F m v H ! L T G d c c H Q Q J H H ! b H L s g m.c G K c H L L d d F L Y I F b G F D c G J c F J m f F F F F H H I F m b c c s c b F x c H T ! ! c F P T P F F G P F b F G K z ",
",.c F H G R G ! L J f 8 x p y 8 p y d p p x b b k y b b K k r c G T P H b F b G H J P P L G x f f F x L ! R G H b Y T c H L P N w.D f L F D c D f G P G c f F H P G G F b P H ! Q b x H H H v p F L b c H D r y d t u c G F H H L b G F G D G G f G G I L I I j ",
"a.F J P P R P c c f d x c b x y p p p d b v b p x i k p x k x m H G F P L G L c f L P G F f i x c d d F G c G R ! K H P H L x n m.G P d d d u d F f J b J G T R J ! J F H P L U m v v c H i r G b d b c d t y u 8 y p d J R L R P F D D f f s c F L ! ! P I F 4 ",
":.F F D G H D s F L c c m d > y k d y G b y b b b m k r x b p b b d G D F F D F G L I L b f f d G f x H J G T R b J F R P F c 4 u.P F c c d f c G G G G G P R P G F s F b T L H G n d v J f v L d d c y d b y d y y F I R P J R x J c d f f f D T L T c G L G 4 ",
"2.F F G G F c F F b x c x y 8 c k r p x x y n m n x p k b K x b b b J J J G H P T P L T D f d t c d P L L L H P H F G G L D f g ;.d D L c F F c P G G Y F I L b G b f J G K ! H Y F H v t s k d n i x p v a d F y x T H F b T H F c p c F G F P H c G b H L v g ",
";.F c F L b d c c x m m x c i n p c p x 9 x b v n p p x b x b v b x L L J P I F c F J F J G G G F L H F F F x c F P G F F b D z 2.c G c f P G G F H f d f D J b x G f F ! L F Q d p i y t x x m k p p d F f v y r m H x x L c x c c i c c m b K m F H L H G b j ",
",.D G F R x G c d H H y y c k c y m d 8 m k x v x i x m K K b H H H s f P P c J L H J G c c D L ] I P P b F K H L f F P F F f q i.F D H b v G P I c t f D G b G b f T J d J Y f c x v d c d Y m p x F v c F b x J F c c F s F x x x F c L U b F u c p c x x d l ",
"0.F f P F D s b m b y c c i y y x F x Y H v L F m p b H b r p H m b G P P D u b b R P G R H D G G x c c c b b H J F J J P D f 6 :.s D G b L b F F G f d f F P b L Q L x L ~ J r r d p d x L H x F n b p f k m H d f d I G F K c c x H F Y F J G d G x F m p f e ",
",.D L G F f c x x c H v r x x c m b x x x H d m x b x H b m H f u f d f J G J G L G f f D L L f d b s J H G m F F c H J P f f e ;.d H d v d d 8 f d , s f G J Y c P I G L P f f y i p F G x c k v x p v F F f y x G G L D u D G J d H L H G f G y H H H H b F 6 ",
";.G c d F u d c c m n x k c n m b p p y y p d H K d v H i d r 9 t F f f D x F P H y 5 F G G s D d F F G L f b P J L F I G c F z q.c Y b v F d u b f d f G c Y b d H c f F c y s d F v b t F k F J p p y d b i x F H F c D L I P x G L J y d y 8 p Y G F H c F z ",
"%.f c G c d b x p K p x x x H c i 5 p p 5 p H b m H k p x r : 5 J f d c F D F F b t x P L D F d d c b b b i F L d K J F I G F q 1.L F c b t y t y 8 d f v F J L F f p y t d f c y i d p F p d d F x i f F y u b c J f u G G D c D L D c c D t d c F F b T c G 4 ",
"7 $ - + $ - & + + + % * O * = + $ 6 & & $ * . = + # = * + < j $ o O % % - . & O + - $ * + + X & < & . o $ % o . = $   X % $ * B e + # = & 1 & 0 + + * - + $ * # + . $ $ < 1 + + O & < # * ; & +   * @ O # * + . * + O & $ . O - = O X $ * = O = . % =   + + o z ",
"L.W.^.R.L.L.Y.~.L.L.P.t.W.P.t.5.C.M.j.t.K.x.[.P.V.K.z.j.W.!.A.S _.b.z.B.I.F.x.G.U.x.S.x.W.g.h.!.L.D.h.L./.x.t.~.D.b.n./.n.{.n.l.B.~.~.B.G.j.A.h.F.H.I.x.B.!.I.h.Z.K.W.[.].x.N.j.A.K.F.R.W.B.h.A oXJ.D.b.I.G.g.I.D.x.I.].p.x.~.P.I.l.h._.^.H.G.g.H.Q.x.L.G.J.b.h.",
"F L I I c P T c d f f f v r y p y p 9 k y x k x v p u Y d p y j _ t d K c r t y p 9 r p F 9 d F d d c F J c J H c H c G J J J d F P p u 8 8 x x d F J b D x x y t b Q F v 5 5 x P H t y f k x l %.F d 5 y p c c c d L D , f F P v G f J P f s d d p p H K L L b ",
"P P Y L L H b s > G s f y y y y 5 r x b H x x p y r F x u x s B ,.t P b s F d y r c p f > d b b d c G F F b b H H H s T J L b F b F r u 5 y b x f F b x y c c D H ! H s s r d K K x y i H b v Z %.d y x d d c d s J D a P F P F G a D ! v y t d x b v L K F F f ",
"b G f P G P c f P a b f b y x d x x k H v p p n y m v i 5 8 y g ;.F d s s H f H f v b p p m H y x H G H G d b H s F v I G f d p f y y 8 x b d f J m c d F F c K ] K u d p b d T Y p 5 L n J b 2 5.b y d p H v d x F d G f f L f d G ! J F s v H v x v H H b v K ",
"m b H D f f f c L v v b c p b v x n b c x 9 x x b m n 5 p p u 6 1.s c c J F G x H b d G x x L n H H F b v L H b J K L G b f J F H f y G G v I f K v b P L T Y Y n F u d F K K b K 9 x v b y c h $.r 9 x x i x d G b c J I J ! H P P x f s D H F t v K v b p W m ",
"b c c F F R R D t d p p x m b b x x v H v m K H Q L p ^ m v s z X.x H c y c f u c c i d F F J x b c F P P P L Y H v b I L ~ P L F d D d F F F G { H P G P H G H F H H G K H c n T b p x F H K C =.b n H v L H v d c c u f s d F F d d c F P H c K Q L H H H H H ",
"f F b H G L G f f f u x p v Q v v x m b K H L Y b F p c y y y Z 1.J F u y d c p c b F J H G L H K b G F L Q / L F Y K P P ] L f u d d f G b Y G K G G F c b L Y H G H d x F H Q L x H b T b r z 7.d m b x F f p b c s P f F c G G b a t F m K K F K m K L H K H ",
"u d F G L J c t d f y v U x v K K K m W K x d y x y v c s y y g v.b f s 8 G P L T L G F D H H L T L b Y K W K p b L J ! { G G L b D f b G v H K m x b f x H L J b b y c p H H b m x m K y 5 t z 4.p f p F p s d b x c G c x H c P f F F J J K H L v H P L f c t ",
"G P R J R f u s d F v n b b K k v b m x f H G c d b K p s c F Z ;.F p t d F G ! ! T G b d L I ! H L ! T T H x H Y P P ] T J F G L d s D D H m x K c F k L F J F x k H b G b L L K H L b v m d g 4.F b v x c u d y f F c P K L d F D L F G F d F m F L P J J L G ",
"G G L H c 8 f c F c F c v x v m k x p x b d t F b L x d P G G 0 5.u y s c L L Y ~ G P G P { ] P J F J G T m b m F G ] L L F p s D s c H L c p b b G r x d H T F b k b d H Q T ^ Y G d H b s y B >.v c J G t G b J P L H b d d d b I H I d P L ! P m f f c G P c ",
"P F F f t t F f b f F b H x x 9 x d d c b F F c H H H F G s G z >.d d b p P ^ Y T L ! L ! ! H F D G b c Y b m x c F L F H u c d a t D d b x k m p y c x c F P K p v p F ^ Y L v v F v G p m y g w.F F b y d J F G G G L b m d b P P F G R G m L P J F G J ! D c ",
"c G G f c c c F f F c H b H b p 9 y y u G f f I H L P ! x b u g d.5 u c F K H L T T I F L G ! R R ! L ~ ! K f p K K Y v f p d x s s c c n p k p y b c F x x H x H m L ^ Y H Y ! x d k y b u r z h.G y y d U K d c f c s G b G x L J G F F F R P [ G b c I F F G ",
"G c f f G F F F F P L L K b c s J x b G ! F H F L F G f y b b 7 w.b c x L F G T L ! P I F v G D F G b Y ~ b K m b K ! x t d p d d b c G x k x x H b p c x G H x s H T G p m x x y b c u s f F V t.c f b H s d p G F K H F P P R F P c c P P ! T P v s F G v c v ",
"H b F G F T K F J D P H H F f f u d f H F x F G J J ! L p p m e %.b L K Q J m T ] G P P H Y T G P U H Y T L F p F m F m b Q m b v p x y x k y i p b H H K H L n G T ~ i x x t t 9 F d d b b p e c.u u y d y L H H G G P ! G D G G G J H ! Q L ] ] f d F P F P G ",
"f c F d c G G F P F b P G J b u f F Q x L F m H I P D f c H m e 1.K G L R b Y R R ! L F F b d F L K H Y K H y b H H K m b H H F f x t H d d d p b U H J F x H c T T F f f p 5 y f y F x p d s 6 2.F d k H H b L F L T ! f F G G T ! I F ^ Y L c F y t f G F L F ",
"d F L G L F c I I G G G G f u G J F G L H x K b f F L G x x c 6 <.x L P ] G H H F c G J J K L T T L H v v x n L T K T J m b H b v x b F c c c H L F c b H n m H L p t y 5 > t v v H u c t H H h ,.u x L Y T m H H L H G G L F R P F P ] | b s p f u d I G F F f ",
"c F f x b F H J G J F L P L L F L I Q L H K Y n d D c I F F c 3 *.K G L c L P R I P R G P J D J J c P H b J Y Y d H L K Y m d d p x s x t f F H J c b F y y Y c b c t d d p u b H d d d b i x e >.x m L ^ b p x H K b b I ! F I I P ] T b k 8 d y d m b d G H d ",
"c H m K H m b F L L F P G J P G G L K b H H T x x s m x f f c l >.F T F P [ ] P P ] L I D G J Y G ! U G p H U m b T P b c r b d v c s u r c K p c m H f p G H b H s 5 c y s H T F F H b H H v N :.F L T F f F F L c G G Y L P G G F F b x x x d x L G n c b x p ",
"n H L n b F H Y P G G T P ! F b L I } R b k x d U P c s c P D z r.L P L G P P J L R ] F c G G Y ! R P F c T U c H T H F t t y p y r 9 r y v J c F F v r d x H b f u y b c Y T c F J i y L F H g h.H L L b c f c b v b ! I L G ! P I P d k x x x T L K G K b b x ",
"b H m b c J c I J b P F c c b F R I J d c L L b F m L R F d F g w.P P F ! ! H L ! T P c F L T T Y c F H m J K G b c x s d v c b i m x i p L H b r d s x c c d x u u x b L Y b d x c K c L F c E <.b v F F p b b G m H ~ } Y H P Y G b x F k x m F b m b H d v H ",
"b b b n v K b b F G P L c H P G J F f v L L L K Y T F d s f c e m.J T c c F J L { T c f D J T H x c b b L Y x d n c i u y d H F F f b r c d f t i v x c F c p c c b x G L H c c K c d K L c D E v.d t y d c b s H I { Q Y H b F H G x d p H H x b G u m b d H d ",
"b x H G b G G R I ! P H F P P F P F F G v G F H c d c c u I P 6 i.] T H J H J T R D H H K ~ Y U T K c Y R F H F m v m F m j c p p y p t c x y u p b p K b d H L d d F H G H d L c Y K Y U b d g V.G J H b m y K K Y { L x c x v F x G b b n H d s b H F L F P c ",
"H x T H L ! L T T ] H H b P P I f D D G G x Y b H G G c J R P C q.L c F L L b P c H G D R ! R T c L R T L L F Y L F F p b p c x F c F > c u d G v v G b H K H F c F H m T x H L Q U T m F d m z %.d f f v p x H K Q T b x i m K b x G Y m K m p b K F H c D G G ",
"U H K L K J p T T P L K P G D f a G D P I [ b b b G c b P G F z i.P F ] ..P L R U R J Y ..{ R L K R c R T F c F L K x u b p m F m F i 8 y r d f k p K d c L L d H b F H H H H L L Y H L H H b g q.F P D m x d F Q m L p k b m b b x K F d G x c H d d c D F L L ",
"L P H T L T L T H b J L J H f f s F J b D P G L H c b c d F H e v.G T ] ] R J L H T K ] ] ~ J J G G J G c G G T K c y u p u J T H a r 9 p 9 f m x J H H H L y F b c J J T L F n K K H K d d u e 2.D D H c u c H b G c m p L G x f H p d H f y G F F G P F F P J ",
"Y J L x H J d x c c P G F D c F H x b b J H G H H c x F J U Y < w.T ~ ! P T P T P P Y T J x D R F F L G c f H x F c D m m J Y d t u p v f v L F K H L F G b c c b G K ] Y y K K L c b v c F F e 2.L d x d x H J H L b x b F L x p c x n H s d s G G G F G m P ! ",
"G I P b F c c P H G P D G G F J F H F c G F f d H b F F K K L N *.T H L G R L F H ! R x F J J D d b F J G d c c R u d x K H x x m p F K J L P K H i P H x d d c c m L L K b T K k p x p p y y C ;.f s F x F Y c F f f d f d c f b c G p x f y d G c G L H K F s ",
"H b J f F K x F f c G f G P d G x F F G J F b H c H c x b c Y z t.H F L D D c p J J T J L c G H f c c 8 t u D F F y d c H G d b c p d x f m v t c F b f y v b F F b m n T H T m x x v y x u p B &.u D d c d d H f d d y m c P c F k d x y y x I L c m f I b f K ",
"b P L H K n b d D D G G L c a F p f J s y u F x L k p H b b K 6 q.H D d d D G T P G J G f G G u D F d s 8 D L L c c d c G p c x x y p F b F p b v d f v G v k b G m b v n x b c p H p u t x b g <.x x c H 8 x x b b r m y x v K p d c r f p d J b G K J L f p F ",
"H H F H x p p v c c G c F d F p F I H x p F H m b y c c x x K 6 _ J L L G T T c c G G f c G D d d F 8 x u P R x f u c T s y p u t t i f 8 p a f u d d H H c v d b c F n b c x d b u 9 p p H s 6 =.x d x x b m x v x b n x v b d c b x i p f p y v y d v d p i H ",
"K x p u p p s c c d L F d b c d b s b d b L F J u i L H x F p 6 r.F T F D K s D c L F > d D f s d d d s H G G c c > H 8 y t 8 5 t p f t y b p f F s H H p 9 y f u s p x x y t d r y p c s c H g @.d y p n x u x y H k k d f v y b v y r d 9 p v F d b f s i 9 v ",
"O . + = = + . + + - O + 6 . o O + & $ O $ - $ O ; + o   + * < V 7 = + 1 2 = 6 < + + + = o . $ - + 1 - # % O # + - 6 + 7 O - = # o o 1 < * + $ * * 2 = ; * + + 1 6 & O & + ; $ O o - # % O O o l e O % $ % < 7 2 # * $ # # < + # * * 1 @ $ e $ X & & % $ $ 4 g # ",
"^.B.L.R.p.r.B.Z.^.z.x.'.l.p.6.V.G.G.h.L.^.G.b.G.Z.r.r.b.H.I.F.c.~.^.{. Xk.(.^.J.L.L.R.x.r.p.^.t.j.N.).I.l.x.b.H.C.b.R.n.D.x.x.+.~.^.W.A.4.Z.J.g.'.W.S.h.l.5.}.(.G.x.^.G.!.G.b.h.G.M.x.g.p.e.y.t.x.N.D.W.P.XX^.b.{./.N.g.W.L.E.[.Z.Q.x.>.U.z.b.W.L.E.^.g.^.W.x.+.",
" .d b b x c d m v d c m t b F f d u c y d f v v s F H T b K L F L J c y ! b H b F r F f d D f s F b f p a f s , y f s f L r f z ' s d d p b r Q G v p c u K K k b m v t d d f v p f y m f v b n f b f b G p p H F F F Q m G v d y 5 p p p b k x x u H m c c p z ",
"o.n s b c p L c p d v s r d t t u b d y v r H t p I F H K d F G D x x m f b d b s v F b t G b m f f d f a t t r H f c J t x F e &.s d d c 8 L b f > r r L v H v f m x H x L J p f y b x v H L c b f p s x y x F b H c L v m v u f b 5 u p d H F c b L b K p i e ",
">.b H H G H H b b m k r f t i F K J K f F d L J ! ! b G t b P T ] T Y H L J F s s b f a t r H J p p s s D f b f F f D b d p t l &.r v H t ~ u u y f d J f n n m Q T Q P T K n f t f c b G f t i y b r L b H H m H x O.H p f i b p s y b x x Y F c ! Q b L H p z ",
">.b F J J P J L L H d p D D P G b a b c L K Q b G F K m s H K L [ P J x b d p d K f f t t p K x d y d c b L D b G P G d d c x 6 7.x v M H L c c d G H F x K W K b x m b Q m v p t m K L H t p F H L H ] K F c c F T L G p p m b b y p c x L P H m ! L v Q d d j ",
"t.m f m H L G c L u r d f I G F b F T v P L L b K G G D m P b L P f f u s f b H L F f F d Q Y F t x d c f b F G P F c b H ! H A o.c L x H L c x L n Q ! n T Q H H K M K L p f r s b K K p i J m H v p d H G H b c T F b F ! v x y p n v d P L n L L b d m d i 4 ",
">.i b G F P L L u d c d G P H G c J c c D P G I L P L c T G F G I F d c y v F L f c G P b F F b f d y d b F F b L I L L c F b 2 y.y k H m H k J m K ^ U ~ | ~ n K x Y L b s 9 t d f K p v f m F v d x x H v G H Y b H x J f b b p v p x m F L K ~ F F L K s G g ",
"=.v H Y W P F F x F c F P L J c J P T H L G L G P P P I P G G T G d G b b F b t f n K d K Y b y i x x G K H H b K G b p d b F j *.v H n J x n L U Q / W Q P K n d K K F K H b b s m b p v v p b H x d c v s y v d b H v b d F y d y x b b m T T M J F f p t m z ",
"7.v H K b P I L G G I I F f I P K I ! P d I I P c T T F f F F G J G F x G y F d L f T F b y p i y d v b m k v H H F b v F L G 2 &.v H G f F F J [ W K H K Q F H x M m m H p p p x b c k K k L H m v r Y d f G H b b v x F H H v y L H b H ! W H F v b p d x s C ",
"6.f L F b P d D d F F F F P I P F K J D ! P P P J K F F F G G R L G c b G H b F f F T G p H b d K P d v K H b Y Y b x u b f F j &.v K K m M H P m L L [ W L f m J n T b L G r r y s b Y n k b x y p d b b T H x Y Y G J H Q f y x x b c L L K K b L F G b H b C ",
"k.J K m c b G P f G F J v L P P F F f I I P J F F c D F P L Q T I F P G L F G G H c G v p b p H x c x K n H n J H p b d v x m l 3.H J J v L P ! K Y P J v m x n L K i m H 5 9 v y x L K M m y b x K m x F b L Q ! J Q Y T L y f v F n m L K L U p J d v f c v l ",
"=.m x H b L L b f v F Q F I I G P F d F G F J c d P J T H R I H J F J P H f d D F H Q v p x x y d x v Q K K L K x d s d d f b N 4.c J c v G K J F ! H d F m F v b v p v p x p F K K Y b n L p H k x v H y F T n K H L K K b x v p v K m v H Q G b J K H Y H d N ",
"b.K Q F K K f i F P J K L L L a c a c ! H J F F J L ] R L R T J s f F c d d J F I G c m v x d v v c K L b H v b b y y c L b H e 4.L F F F v J v Q J F F K b G b x x p d p p b H Q P b m U L H H H H n d p m m v W U b b L x b L K Y x b U v H v c b F d x d c j ",
"f.F J G G d r b f f L G v a G f F P H I J F L b L P ] G G H G G b L G G d c F H J b v J F b f d t v H F F v v i y y y c H b F e r.D F b n M L H Q J K x v L v v f x f p v b v K F p f v b b x x f L v x d m U ! ! b K K Y b p c L b b n H U Q K x b T H d d d N ",
"c.L W J b i f F d v F f G v c c H F J H ! P T P G P T c H T R d c D x b f G F f f b Q I f p d b c p K v b x d s d y p n m k b h 0.L c G Q Q Y Q W P G J m G L i d v x b x v K H f x v x v c H b v H p x m T ^ T K L L m b i b H L k H U U L K F x m L d y c b 6 ",
"0.L G H b c i d b F K d f y c v L H ! T G L P H P { ~ [ D L J J f G G L J G d c G b v p f v d n c K n b b F f G H b x x x b b 4 e.F a b ! J K K P K L v f L b t y b H F b K Q F d y y d x x b b p v b H H K m m U Y H s p k b H p K H m Q ! Y H T L P c d k Y N ",
"b.b x d d F m x b d f b c D L G c J T P F P T P P L R J T J c d f b f G D d f c H L D G c c L H i c v b d x b x b b H K b K K V &.G s L Q ! K Q J K s m v J u F G x b b G T Q f y b F c c H L b v m M n M K L J W m n v m n v m b H m ^ ^ Q b b H L y s v b v 6 ",
" .b F K F L y y d p b F H F c d c H F c H F G J G F } R b G c c G b F F F f D f G m c L T m F c k H b G L F x d m p H L Y b x l y.v v F L H K F n s m f y p d H c b b J Y G s y p c d b H K H H H P L W L L M m K K J J K G J n v Q T ! ^ m p Y ! F b K K T m V ",
"t.b x c c L H c c c c x F P F b F D F T J L F L c P T L D c F L P f f F G F F b P G K ~ y c F c n c b m x b H Y H Q Q Q m v K 4 q.m L P G F K t r f m x d m m L p K d b c d y F s p d m T x Y H J Q ~ K K L M n Y J n v m K P J K L L ~ T k Y b m L v b T b p 6 ",
"$.c U x m x b d x F c c L P F F J P P R R c J T R R } F f G I L c F F d f F d G F G G F G Y U c c G b p b m Y H H L L H K Q Q 6 3.G F v I ! P f F L b f a G p t d f H L b d c d d d x b x F b H M P K H d J n M W n v K v G K K K b H U H U b H v F m x b x x e ",
"y.L c m n H F y d d c b P G c L R L P P G P L H R ] F F G F F J c p c y F H c P c P D G R P c c F b x L K v L Y T L Y Y L L P e 3.F J p K P F t v F f p f c v v k v b T b c d s x c F k b m U x F v v F F H M P m M K v d n K ! T m K U T n v p c c F x b b m N ",
"1.c F x c x d d r 5 y x d c s f F J G R [ F J R J L L P c L L P t y b y r r x c F G [ [ G P d L d b L H L F K [ L G U L v H F e ;.f y J F p s p p p F H b d b K x T K b y d b b d F u p b b b H H K H K b Q K n I P c b H K Q K L H m T Y F Y n K m x u L F p l ",
"f.Y F x b p y 8 d x x f D d F G U Y L R P L R P ] H G J F Y Y d d c d r i x b b P T L F T c J Y G P G G L P J m b K K L F L d e *.p F t t d t t b G L x t m m F Y H K m b v F p b x d m F m H v L Q K P K K m K M Y f K m K ! K H m Q U T Y J v H k x m H c c V ",
"t.u c J Y d d D t c P f d G P J T J R R L R L R T J L Y c p x y f p u p b b c H K c H P D F F D d J b L ! ! G H T K Y L J G c e q.d D s c m m H F v v v k J n m K H b b y d p y f J F K J L U ~ ^ n k H K K v x b f f H P v m J d T Y T K b x x x b H m c i y V ",
"y.b F b J c F u t s d c n K L L G G [ R H F F P D H J H x K K i H u F x x H U b c b G I G F D F L ! F P L P G b L L H L f c t Z ` d G P F G P a c F n v K n L K L H L x p x x x H J G G T R R ! W n n J L H m F m d F L p k M d K K U K H J v b F d T k d H c 6 ",
"%.P F G F D t > y F J d b b b G G H G G F D F G P T J b b y x c f c c u n F c c H H L G f D c c L s F L I D b R L F c F f c a l >.H P d v P I d F L n v H K L G H b p F F x c b P c T G P G ~ T H G p K H H x K J K x v x n m n H K H L k n J F x T K x c b b g ",
"*.J d F F , 8 y d c d b k v H H G b J D F D D F G G H J i x y 8 u 8 s x d c n b c H J P G D b L I F G G a F d f b F G D L L t V ;.G s D P H J L K K H v f L K J d v v L m d H P G H L G G J T H J b K F H P T F d p F G m v K M H M v p K v b u b H c d x b b B ",
"0.r f F b t t t f D p x y H K F c T P F F c T b L J K K F J F d c m m x y n b n x x H L T G P L P f f f f L G P H P G G f a c N >.c F J ] L G H F b b J J L J v F p p k x b H H n b x c d P R L m v J F P P F f v d f H m J H v H i b b H d p F c x b H b x b z ",
";.t L c r F s f F c 8 c b b m F H P d u c R F b c F Y J H x p y F x p x y k x x x c H P P K G H F m d d v I J L F F D F d d a e c.F D P G d u d m m k p c v F t x d H H b b F G b b c y d c c H b F b G J d t d p x m L b b v f n d p K T u c m m T m f d b x N ",
",.G b c F f s f F s F c c b H b D y s x H x m m n m U c F 8 x i i p r x x H x n y c d p L f f f d G r d f L T G m F v d P G P i q.f L P H d p c F b p L n K x f u m H d y r c u y d 8 d d c H G J f D G H d F P G u b f L F G m K p d J L d f x H x x s i p y B ",
"h.b 8 x r t y f t f H d d p L F c u d H b K m K F K Y x 5 d y y y y k y H x p x y u t p c 8 8 8 t s f F I H P G L f d F D F D 4 -.G R D 8 u c b x y P p i v f d b c c x y y d x y u 5 s c F J H F F G J J c G s c f L G G s G c d p L F c D d c b i s d y x d e ",
"2 + 6 & ; - $ $ 1 1 $ - & % $ # $ $ O . ; $ % * 3 = * % 2 2 7 O o + . . # % = + 1 + X O = % 1 # $ $ o $ & #   o X $ - & @ + O V 2 - O - 7 3 $ % 1 ; % 2 $ O @ % $ - $ & & * * O - 1 $ o O ; 1 + + o X * % ; # o $ + $ + @ ; % o $ 4 o $ + O $ O . # o O 1 = # B ",
"V.[.P.K.A.G.z.W.(.Q.K.G.!.L.E.L.E.N.h..XW.G.U.E.Q.(.L.P.W.K.j.( `.w.x.E.N.A.6.C.x.y.t.z.D.^.x.I.b.h.L.].I.b.L.n.T.P.W.L.b.v.h.F.~.J.J.J.J.B.P.|.U.F.Q.J.L.g.N.x.~.L.Z.E.A.!.k.W.U.x.b.H. X].N.+.XXL./.F.R.D.Y.H.b.W.L.~.W.A.h.N.XXx.H.b.b.G.b.l.L.b.h.~.I.k.h.c.",
"d y c u t y t F r 5 x x c m c T L 8 T K H c c p v p n p b c F e $.m b r k y r c s t t y x c G b F ] I D L I G u G f F x b F F c D f c f t d c J T m H K s u x p 9 y b p x d n m v m F b F s G z ,.P f P H b F f F x H G f t s P J s t y s v p D F G c F v b u f ",
"c s d d f K b L x b n x F c b T J F x m c y x x v L m f H T x e $.y 5 k d y H t u u d x d L G P P I I ] I G G G F v F L I G G v s f F f G f ~ G Y p L u i v y F p b Y x d y b n x f H s F P P V i.P F f p b D G J f F f u d P D y f b J G x c G y y c G f d f F ",
"y H u H b ! L m k c L F K F L L F n x D F b K x x x H v L H x N $.p x x K c b t y K r F T G v f P J P P L L H G G b v d J f s m f L a t t F G ! p T F K b p n y p b p b x F v k y f p J G b G V c.f f G G P F d t D r c c c D x F b L d H f v d p c H F D x f J ",
"L b c P f G J v c H H D P K L L c Y F D c T F K H H m H K i 8 N <.x c G I f f d L t f L P b b J P ! P F ! F f G F F b H H d G s f a t D G f I G L K H b y x d b H c v p v K v v v J L H F W b 4 q.I J m t f D f J f G F c J D G F K L J L m d v t L c J F x H P ",
"G P D u H F M F x b d x c H c H R L L J P P ! b b H T T H c x N =.d H K c f d D F D F R P x F G { F G [ P G L G R G F b c b y d F F P f P P P G G b x d n x b L s b v m ! b p x t J L v c D F z 0.I c f s Q L [ R c F F ! G D P f p L n F p v G x L L K K H F F ",
"G F t f F L b f x d y F L c J T R F L F R T L U c H / P L D c 6 s.m P L H D x L a L F P F f F L L P ] P P v H F G F f d b d y d G c t L L L L ! G J G H L k H c d H F H K b b p L L x F u f d 0 g.t d f F J b b c s G H c F H c b m K G f b v t H n n G L f c b ",
"F f G P J c c f c f d b x H F J K F c F x H L b H ~ ! b c c D A =.c G F D J D c f L G c F F F I ! Q P P G L c u f f J x G x c x d a x I G b F b b F H H s p b f f G b H Y c c G P c F b u c H z 7.G d v b s f F J P b u d c x K J H v H G F m m H L P b x b b J ",
"f F G G c p a t D F F F T m x H L b d H U F k H J L F F c F f z 4.p F D D d c J b b H b J F P { ~ G I F R L f f f c D F x d c H v F F b F F m f F c P F u d F f v K H T F c F F s b v r v b f N %.d F t d t D G R P t c c F x n p v H c b J D K L K b J F J F I ",
"u t b f f x b P D f D H G J H Y T x i F H m c Y L d P u P c D j 1.D L J P D Y F c J b c b J T ~ T H L I D s t G D F P f x n r p t f F b d d p m G H J d s H d c d c I P P G b c m K p d f b t V y.G G L P F G J R f u F F H ~ F K H M n L J H F K F i F b F b d ",
"u y c f d G b c D G ! J H U H G d x J Y H H K G d c F G J D f 7 1.L D G D H d c J x p G Y Y T T I L F d d f f F I ! H G v p y u m H m v i K L K c P c u G c F d x b ! G ! P b F P f s f v G F 7 q.F v G s G F P c c F b L H x L Q H n J K F r d v c L G H H P b ",
"c b F P G I G f D L L R } J K c d G ! T H L f d D H P P d d a l 2.L D D D D d c y H T G b T U T H G b c D L R R G y c H p d y m L F x c H H K f b G d b x b J G F J L L Y F b L b p p D G v b e ,.F F F F H G D G K x H U Y x U H m f x J v b W L H W P J F b u ",
"J L J G F G J c J J P ] T m t F P ~ ! P L f D t c G F P J D F N &.L L f J F x v x c b L L J ! J d b c F b H L b c F f f d b c F F d f b b b F F b K c d P D F c J F G P P L H c a D P P G F f V 3.F d D f D c G T G c T T H b G v d b f p c H H J J m L H F d b ",
"F f d F G G L b J J T P L c u c J G P F P F P c L F T F f G J l d.c x f D f x H K b v H Y b d c c d x s b m H b H L G x F F L L W x d L L K K v f y y H G G P I G I ! R R d 8 t G L d s f v x C ,.f L G P ! L L L c T R F c D c f P L c v H H p c I P P P J d F ",
"F F F L T L F F G T G H P d d P J R G F [ L F J c c c F P c 8 l ,.s f x D F G F H m m c F u F y y y y d c m b v x x s m T Y H b L x J n K p b d y G c L f J ! T L P P J F a d d D d F D f F F z w.f D d I H F F F K ] P L L d L L T v b b J f b J G ~ H H G D c ",
"c s d G K x b K P J c L T f G D G c c U F c c u G P F G D t f z ,.L T Y R T T L L H d f d p m y u c f b K b x c s t x v Q k c L H i J i n f d v H H J K L T R f G J G G f a u f b f a L c c u j n.P [ P J b P I ] G L d H d D D G s F c n b J b H I I W L J v F ",
"s c H L b y d G P G H L f F G P H b F Y G c c c d D f D F F c A :.R d G D T c J c b i D x x b i H b d m v r b p y m J M K d m H x x F d p m y v F b m H L J b n c L G f t u f y F c d F G P f z X.F H H P d H P D P F a m d u F f G d F F H m H b m K K F v m d ",
"b P b L F F K Y K c f f G G G L D m R H H D H c i c d c F t s l u.d x G U c F x G x c c c H k x p y x p y K K s b v Y Q v p 9 i b f p p b p y J b b v v p p k b c G G y 8 d G P F f F F ! F a C 3.P b d G P D D b d c m s b f c G ! K v p i p t W K L K Y k p y ",
"H P H J c H L I a f G f L G T G L H c G J J f c d f u c d f L l 2.u G c P c F d u x K F F H c x v c v p v p c F H J K n v i p d p y p m b i b i c p m d y v b H c b D s u c d f G F b f c D D g a.u i f P F f d G f D c m d a x P G d s v d t K J Y L L J c v d ",
"K b b H F G J t c F f L L F f d c y b H G x D c u y c t G d d z w.F G H J D c c f F x m m H d x d t b v b G K Q H v K b v G r v d k d H b i t d v f v v y L x i 8 p F 8 t G P J G f s f f t d z 3.G L L J s s H G s P m b x i H G F a F F F F ^ ] P P W b F d F ",
"x F c c f F f G f v K F F J F d x F L G c D G d d c c f D c b e u.p T J F F a u c G F m T x c d f f m p v d L L T L x v b b n m k d x H p f p v v b d b y k n x c y d G G Q L G G p F G G F L z a.L W K H L H F f P R m m b x x H F F F D D T ! ] P P J I J J L ",
"s d d 8 f F G D F F d r b b f d x F G c d F f d s , y s t s H g 0.Y c c F J c H c H G J L G d u b G b x x v K H y x b v p f d s p v r b v G b s f x m k b b c d s G D f L b J F G m F G L L H e 3.v x c F c x d D F J m F p d J G v a s F G Q K m m b f F c G d ",
"L f a d F d d v F F v c x v x c c P F d D G d f s c J c c x n S %.b K L c f T H d H L U F c y y b b K L i K J f d i H L f k p i v f k m G f s v d b x c c p f F D D G b n m H Q ] ] J P I P G g e.b c D m s F d J P L F r d b P m f F f f H L K K H s P G f D c ",
"8 8 c c G c I L L b G I b b c p H c G d H c x d c D F c d H c 7 k.H L f f R G c c L H b x 8 d D G f x L f H J v p b T x p v G x r f K G F f f f H v x c d F D f f c H v M Y b L Y H F b F c F q 3.J x b K x s d H m L a r b L c s b F v P G I d c b , f s d t f ",
"f D d J G D G P G P T d f d x H a G L G L f u t f D F f F c H B *.p b c f f F d f b v y 9 c p f b c d F p G T F H L b p c v p p f b f u d d v F v u t c G s f F J F Y ^ Y k Y ^ K G b x J f F j >.b L F J f d d J F s s K H H G D K P J G I I W b d d D f d d D ",
"c L L T ! D G H L c d D b F x x s G D d d u d c G F H H b m b V 1.b x F P I F x v m K c r i i v K d c b d P D F F f x m m P F F k J x G G c t f f u v I F f F f H G T J m n H x m b H t f G J 7 8.b G J P f d F P F G F F m J I P m p d c b F c x L J c b d D f ",
"G D P L c F R d s b F f F x f x b G d f a d G H F R F K G m c N h.c u G R H L L v d r 9 v F L m b p d c R D b c G K n Q n K b v Y b v d c d c y r F P f s f P G G J m F H d b x r x F f F F I 4 :.c W I F G s J G c D J b J P ! H R b J J L T P W d c f F m J G ",
"L G G F s P c F G f D f f c c F G f s u f F b c F G b k p p c z 0.x x I F b c c t v i p f F c L c H L F d F F b Y b K n p p p G m y t v L F s p c b G t f d F f F L x b H p K F T K F d F G I 4 :.J F f d r J s G F F H H P I T b y t H b H u b t c G D F d f G ",
"G F f c c G F G f F F L G F c b F u d d s F f G F x b d d y d l 5.s K b c b s F f v f p c K P c p L c G H K T b J J K M p y m v p y t F F d r s v s f F G G F F D H c K b L ! T n F b F d F P z >.b F d t G D G c c F P P H D c d d x c F K U ! x p K b F f D G ",
"P D G D P P F d F u F D s G F c d u s d F H L x d G t 5 y c F z 0.b y y d d s t t f t t d G p f K d y c x c f x m M 9 9 i G f f x y f c b u x y s G F G F f P G c b n H L L H x x v d f v H P z =.f t p f c b t c J F P G G P c b x v k b H p D d R f t f f P G ",
"f G t c b D D F f t c s G G G J H d u s f c G c F c f d x d x 1 u.f 8 s d y u c b F , f J v f K x 9 d x y G F U v x b H b t s f p F y v u b 9 p F s F f G a F G b b b H Y b b F J b b b G I P 2 4.y t c H t J f H F F P P H H P H F 5 t b a d r c b D K D f f P ",
"#   = $ X o o - $ o   ; % #   O O o O = # * $ o o o O $ # $ & C e $ * = + - * $ $ + * # = < * # * % . = < $ + $ 3 = @ # 1 1 ; $ + o o + 2 O % . $ @ . o % & = X $ & < . = $ * ; @ O . o # + * A 6 = ; * $ 1 O $ * ; * X ; & . @ $ 3 ; - @ o = - @ . & * * - 0 $ "
};
